(.../pcb-gcode-3.6.2-2.4/pcb-gcode.ulp)
(Copyright 2005 - 2012 by John Johnson)
(See readme.txt for licensing terms.)
(This file generated from the board:)
(.../Arduino-Pro-Mini-v14-CNC/Arduino-Pro-Mini-CNC.brd)
(Current profile is .../pcb-gcode-3.6.2-2.4/profiles/generic.pp  )
(This file generated 8/4/14 2:18 PM)
(Settings from pcb-machine.h)
(spindle on time = 3.0000)
(spindle speed = 8000.0000)
(tool change at 0.0000 0.0000 10.0000 )
(feed rate xy = F0.00  )
(feed rate z  = F508.00 )
(Z Axis Settings)
(  High     Up        Down     Drill)
(2.0000 	0.5000 	-0.0800 	-2.0000 )
(Settings from pcb-defaults.h)
(isolate min = 0.0010)
(isolate max = 0.0500)
(isolate step = 0.0500)
(Generated top outlines, top drill, )
(Unit of measure: mm)
( Tool|       Size       |  Min Sub |  Max Sub |   Count )
( T01  0.508mm 0.0200in 0.0000in 0.0000in )
(Metric Mode)
G21
(Absolute Coordinates)
G90
S8000
G00 Z2.0000 
G00 X0.0000 Y0.0000 
M03
G04 P3.000000
M05
G00 Z10.0000 
M06 T01  ; 0.5080 
G01 Z0.0000 F508.00 
M06 
G00 Z0.5000 
M03
G04 P3.000000
G00 Z0.500000
G00 X31.7500 Y10.1600 
G01 Z-2.0000 F508.00 
G01 Z0.500000
(R0.5000  P1.000000)
G00 X36.0680 Y14.9860 
G01 Z-2.000000
G01 Z0.500000
G00 X39.1160 Y17.6530 
G01 Z-2.000000
G01 Z0.500000
G00 X39.1160 Y19.0500 
G01 Z-2.000000
G01 Z0.500000
G00 X37.7190 Y31.1150 
G01 Z-2.000000
G01 Z0.500000
G00 X39.4970 Y31.3690 
G01 Z-2.000000
G01 Z0.500000
G00 X37.0840 Y34.1630 
G01 Z-2.000000
G01 Z0.500000
G00 X35.5600 Y34.1630 
G01 Z-2.000000
G01 Z0.500000
G00 X34.2900 Y40.6400 
G01 Z-2.000000
G01 Z0.500000
G00 X36.3220 Y40.7670 
G01 Z-2.000000
G01 Z0.500000
G00 X40.6400 Y40.3860 
G01 Z-2.000000
G01 Z0.500000
G00 X43.1800 Y45.2120 
G01 Z-2.000000
G01 Z0.500000
G00 X45.7200 Y45.2120 
G01 Z-2.000000
G01 Z0.500000
G00 X35.5600 Y45.2120 
G01 Z-2.000000
G01 Z0.500000
G00 X34.2900 Y48.2600 
G01 Z-2.000000
G01 Z0.500000
G00 X47.3710 Y30.6070 
G01 Z-2.000000
G01 Z0.500000
G00 X52.0700 Y10.1600 
G01 Z-2.000000
G01 Z0.500000
T01 
G00 Z2.0000 
M05
M02
