(.../pcb-gcode-3.6.2-2.4/pcb-gcode.ulp)
(Copyright 2005 - 2012 by John Johnson)
(See readme.txt for licensing terms.)
(This file generated from the board:)
(.../Arduino-Pro-Mini-v14-CNC/Arduino-Pro-Mini-CNC.brd)
(Current profile is .../pcb-gcode-3.6.2-2.4/profiles/generic.pp  )
(This file generated 8/4/14 9:03 AM)
(Settings from pcb-machine.h)
(spindle on time = 3.0000)
(  Tool Size)
(0.2000 )
(spindle speed = 8000.0000)
(tool change at 0.0000 0.0000 10.0000 )
(feed rate xy = F25.00 )
(feed rate z  = F5.00  )
(Z Axis Settings)
(  High     Up        Down     Drill)
(2.0000 	0.5000 	-0.0800 	-2.0000 )
(Settings from pcb-defaults.h)
(isolate min = 0.0010)
(isolate max = 0.0500)
(isolate step = 0.0500)
(Generated top outlines, top drill, )
(Unit of measure: mm)
(Metric Mode)
G21
(Absolute Coordinates)
G90
S8000
G00 Z2.0000 
G00 X0.0000 Y0.0000 
M03
G04 P3.000000
G00 Z0.5000 
G00 X0.2893 Y0.3534 
G01 Z-0.0800 F5.00  
G01 X0.2546 Y0.4372 F25.00 
G01 X0.2546 Y50.3627 
G01 X0.2893 Y50.4466 
G01 X0.3534 Y50.5107 
G01 X0.4372 Y50.5454 
G01 X34.7163 Y50.5454 
G01 X34.8002 Y50.5107 
G01 X34.8643 Y50.4466 
G01 X34.8990 Y50.3627 
G01 X34.8990 Y49.0191 
G01 X34.8643 Y48.9353 
G01 X34.8002 Y48.8711 
G01 X34.7164 Y48.8364 
G01 X34.6256 Y48.8364 
G01 X34.6226 Y48.8377 
G01 X34.5418 Y48.8711 
G01 X34.4215 Y48.9210 
G01 X34.1585 Y48.9210 
G01 X33.9156 Y48.8204 
G01 X33.7296 Y48.6344 
G01 X33.6290 Y48.3915 
G01 X33.6290 Y48.1285 
G01 X33.7296 Y47.8856 
G01 X33.9156 Y47.6996 
G01 X34.1585 Y47.5990 
G01 X34.4215 Y47.5990 
G01 X34.5418 Y47.6489 
G01 X34.6256 Y47.6836 
G01 X34.7164 Y47.6836 
G01 X34.7978 Y47.6498 
G01 X34.8002 Y47.6489 
G01 X34.8643 Y47.5847 
G01 X34.8990 Y47.5009 
G01 X34.8990 Y46.2390 
G01 X34.9907 Y46.1474 
G01 X35.0548 Y46.0832 
G01 X35.0895 Y45.9994 
G01 X35.0895 Y45.7254 
G01 X35.0548 Y45.6416 
G01 X34.9996 Y45.5864 
G01 X34.8990 Y45.3435 
G01 X34.8990 Y45.0805 
G01 X34.9996 Y44.8376 
G01 X35.1856 Y44.6516 
G01 X35.4285 Y44.5510 
G01 X35.6915 Y44.5510 
G01 X35.9344 Y44.6516 
G01 X36.1204 Y44.8376 
G01 X36.2210 Y45.0805 
G01 X36.2210 Y45.3435 
G01 X36.1204 Y45.5864 
G01 X36.0652 Y45.6416 
G01 X36.0305 Y45.7254 
G01 X36.0305 Y45.9994 
G01 X36.0652 Y46.0832 
G01 X36.2210 Y46.2390 
G01 X36.2210 Y50.3627 
G01 X36.2557 Y50.4466 
G01 X36.3198 Y50.5107 
G01 X36.4036 Y50.5454 
G01 X37.2563 Y50.5454 
G01 X37.3402 Y50.5107 
G01 X37.4043 Y50.4466 
G01 X37.4390 Y50.3627 
G01 X37.4390 Y46.2390 
G01 X37.5306 Y46.1474 
G01 X37.5948 Y46.0832 
G01 X37.6196 Y46.0233 
G01 X37.6295 Y45.9994 
G01 X37.6295 Y44.6940 
G01 X37.5948 Y44.6102 
G01 X37.2811 Y44.2965 
G01 X37.2095 Y44.1236 
G01 X37.2095 Y42.8726 
G01 X37.1748 Y42.7888 
G01 X37.1106 Y42.7247 
G01 X37.0947 Y42.7181 
G01 X37.0233 Y42.6467 
G01 X36.9592 Y42.5825 
G01 X36.9091 Y42.5618 
G01 X36.8754 Y42.5478 
G01 X36.7846 Y42.5478 
G01 X36.7008 Y42.5825 
G01 X36.5934 Y42.6900 
G01 X35.3666 Y42.6900 
G01 X35.2830 Y42.6064 
G01 X35.2188 Y42.5422 
G01 X35.1589 Y42.5174 
G01 X35.1350 Y42.5075 
G01 X34.7044 Y42.5075 
G01 X34.5315 Y42.4359 
G01 X34.3991 Y42.3035 
G01 X33.8911 Y41.7955 
G01 X33.8195 Y41.6226 
G01 X33.8195 Y41.1534 
G01 X33.7848 Y41.0696 
G01 X33.7296 Y41.0144 
G01 X33.6290 Y40.7715 
G01 X33.6290 Y40.5085 
G01 X33.7296 Y40.2656 
G01 X33.7848 Y40.2104 
G01 X33.8195 Y40.1266 
G01 X33.8195 Y39.7950 
G01 X33.8090 Y39.7697 
G01 X33.7848 Y39.7112 
G01 X33.7206 Y39.6470 
G01 X33.6370 Y39.5634 
G01 X33.6370 Y38.3366 
G01 X33.6803 Y38.2933 
G01 X33.7445 Y38.2291 
G01 X33.7782 Y38.1477 
G01 X33.7792 Y38.1453 
G01 X33.7792 Y38.0546 
G01 X33.7644 Y38.0189 
G01 X33.7445 Y37.9708 
G01 X33.7429 Y37.9693 
G01 X33.6803 Y37.9067 
G01 X33.6370 Y37.8634 
G01 X33.6370 Y36.6366 
G01 X33.7266 Y36.5470 
G01 X34.8982 Y36.5470 
G01 X34.9053 Y36.5500 
G01 X34.9508 Y36.5500 
G01 X34.9960 Y36.5500 
G01 X35.2694 Y36.5500 
G01 X35.3531 Y36.5153 
G01 X35.4173 Y36.4511 
G01 X35.4520 Y36.3674 
G01 X35.4520 Y36.1366 
G01 X35.5416 Y36.0470 
G01 X36.2184 Y36.0470 
G01 X36.3080 Y36.1366 
G01 X36.3080 Y37.4641 
G01 X36.2896 Y37.5084 
G01 X36.2738 Y37.5466 
G01 X36.2738 Y37.5925 
G01 X36.2738 Y37.6373 
G01 X36.2826 Y37.6587 
G01 X36.3085 Y37.7211 
G01 X36.3411 Y37.7537 
G01 X36.3726 Y37.7853 
G01 X36.4182 Y37.8042 
G01 X36.4564 Y37.8200 
G01 X36.5023 Y37.8200 
G01 X36.5472 Y37.8200 
G01 X37.1459 Y37.8200 
G01 X37.1607 Y37.8240 
G01 X37.1908 Y37.8200 
G01 X37.2213 Y37.8200 
G01 X37.2354 Y37.8141 
G01 X37.2506 Y37.8121 
G01 X37.2770 Y37.7969 
G01 X37.3051 Y37.7853 
G01 X37.3159 Y37.7744 
G01 X37.3292 Y37.7668 
G01 X37.3477 Y37.7427 
G01 X37.3692 Y37.7212 
G01 X37.3751 Y37.7070 
G01 X37.3844 Y37.6948 
G01 X37.3923 Y37.6654 
G01 X37.4039 Y37.6373 
G01 X37.4039 Y37.6220 
G01 X37.4079 Y37.6072 
G01 X37.4039 Y37.5771 
G01 X37.4039 Y37.5466 
G01 X37.3980 Y37.5325 
G01 X37.3960 Y37.5173 
G01 X37.3808 Y37.4909 
G01 X37.3692 Y37.4628 
G01 X37.3613 Y37.4550 
G01 X37.3520 Y37.4201 
G01 X37.3520 Y37.0385 
G01 X37.4040 Y37.0385 
G01 X37.4040 Y37.4201 
G01 X37.4194 Y37.4572 
G01 X37.4478 Y37.4856 
G01 X37.4849 Y37.5010 
G01 X38.0751 Y37.5010 
G01 X38.1122 Y37.4856 
G01 X38.1406 Y37.4572 
G01 X38.1560 Y37.4201 
G01 X38.1560 Y37.0385 
G01 X38.2080 Y37.0385 
G01 X38.2080 Y37.4201 
G01 X38.1976 Y37.4590 
G01 X38.1774 Y37.4939 
G01 X38.1489 Y37.5224 
G01 X38.1035 Y37.5486 
G01 X38.0754 Y37.5603 
G01 X38.0646 Y37.5711 
G01 X38.0513 Y37.5788 
G01 X38.0328 Y37.6029 
G01 X38.0113 Y37.6244 
G01 X38.0054 Y37.6386 
G01 X37.9961 Y37.6507 
G01 X37.9882 Y37.6801 
G01 X37.9766 Y37.7082 
G01 X37.9766 Y37.7236 
G01 X37.9726 Y37.7384 
G01 X37.9766 Y37.7685 
G01 X37.9766 Y37.7989 
G01 X37.9825 Y37.8131 
G01 X37.9845 Y37.8283 
G01 X37.9997 Y37.8546 
G01 X38.0113 Y37.8827 
G01 X38.0222 Y37.8936 
G01 X38.0298 Y37.9068 
G01 X38.0539 Y37.9254 
G01 X38.1250 Y37.9965 
G01 X38.1870 Y38.1460 
G01 X38.1870 Y38.6665 
G01 X38.2080 Y38.7172 
G01 X38.2080 Y40.0828 
G01 X38.1870 Y40.1335 
G01 X38.1870 Y41.2285 
G01 X38.1975 Y41.2538 
G01 X38.2217 Y41.3123 
G01 X38.2858 Y41.3765 
G01 X38.3830 Y41.4736 
G01 X38.3830 Y42.6004 
G01 X38.2653 Y42.7181 
G01 X38.2493 Y42.7247 
G01 X38.1852 Y42.7888 
G01 X38.1505 Y42.8726 
G01 X38.1505 Y43.7860 
G01 X38.1852 Y43.8698 
G01 X38.3024 Y43.9870 
G01 X38.4989 Y44.1835 
G01 X38.5705 Y44.3564 
G01 X38.5705 Y45.9994 
G01 X38.5810 Y46.0247 
G01 X38.6052 Y46.0832 
G01 X38.6693 Y46.1474 
G01 X38.7610 Y46.2390 
G01 X38.7610 Y50.3627 
G01 X38.7957 Y50.4466 
G01 X38.8598 Y50.5107 
G01 X38.9436 Y50.5454 
G01 X42.3364 Y50.5454 
G01 X42.4201 Y50.5107 
G01 X42.4843 Y50.4466 
G01 X42.5190 Y50.3627 
G01 X42.5190 Y46.2390 
G01 X42.6106 Y46.1474 
G01 X42.6748 Y46.0832 
G01 X42.6996 Y46.0233 
G01 X42.7095 Y45.9994 
G01 X42.7095 Y45.7254 
G01 X42.6748 Y45.6416 
G01 X42.6196 Y45.5864 
G01 X42.5190 Y45.3435 
G01 X42.5190 Y45.0805 
G01 X42.6196 Y44.8376 
G01 X42.8056 Y44.6516 
G01 X43.0485 Y44.5510 
G01 X43.3115 Y44.5510 
G01 X43.5544 Y44.6516 
G01 X43.7404 Y44.8376 
G01 X43.8410 Y45.0805 
G01 X43.8410 Y45.3435 
G01 X43.7404 Y45.5864 
G01 X43.6852 Y45.6416 
G01 X43.6505 Y45.7254 
G01 X43.6505 Y45.9994 
G01 X43.6610 Y46.0247 
G01 X43.6852 Y46.0832 
G01 X43.7493 Y46.1474 
G01 X43.8410 Y46.2390 
G01 X43.8410 Y50.3627 
G01 X43.8757 Y50.4466 
G01 X43.9398 Y50.5107 
G01 X44.0236 Y50.5454 
G01 X44.8764 Y50.5454 
G01 X44.9601 Y50.5107 
G01 X45.0243 Y50.4466 
G01 X45.0590 Y50.3627 
G01 X45.0590 Y46.2390 
G01 X45.1506 Y46.1474 
G01 X45.2148 Y46.0832 
G01 X45.2396 Y46.0233 
G01 X45.2495 Y45.9994 
G01 X45.2495 Y45.7254 
G01 X45.2148 Y45.6416 
G01 X45.1596 Y45.5864 
G01 X45.0590 Y45.3435 
G01 X45.0590 Y45.0805 
G01 X45.1596 Y44.8376 
G01 X45.3456 Y44.6516 
G01 X45.5885 Y44.5510 
G01 X45.8515 Y44.5510 
G01 X46.0944 Y44.6516 
G01 X46.2804 Y44.8376 
G01 X46.3810 Y45.0805 
G01 X46.3810 Y45.3435 
G01 X46.2804 Y45.5864 
G01 X46.2252 Y45.6416 
G01 X46.1905 Y45.7254 
G01 X46.1905 Y45.9994 
G01 X46.2010 Y46.0247 
G01 X46.2252 Y46.0832 
G01 X46.2893 Y46.1474 
G01 X46.3810 Y46.2390 
G01 X46.3810 Y50.3627 
G01 X46.4157 Y50.4466 
G01 X46.4798 Y50.5107 
G01 X46.5636 Y50.5454 
G01 X47.3790 Y50.5454 
G01 X47.4091 Y50.5494 
G01 X47.4239 Y50.5454 
G01 X47.4393 Y50.5454 
G01 X47.4674 Y50.5338 
G01 X47.4967 Y50.5259 
G01 X47.5089 Y50.5166 
G01 X47.5231 Y50.5107 
G01 X47.5446 Y50.4892 
G01 X47.5687 Y50.4707 
G01 X47.5764 Y50.4574 
G01 X47.5872 Y50.4466 
G01 X47.5988 Y50.4185 
G01 X47.6140 Y50.3921 
G01 X47.6160 Y50.3769 
G01 X47.6219 Y50.3627 
G01 X47.6219 Y50.3323 
G01 X47.6259 Y50.3022 
G01 X47.6219 Y50.2874 
G01 X47.6219 Y50.2720 
G01 X47.6103 Y50.2440 
G01 X47.5990 Y50.2019 
G01 X47.5990 Y48.6150 
G01 X47.6510 Y48.6150 
G01 X47.6510 Y50.2103 
G01 X47.6857 Y50.2942 
G01 X47.7498 Y50.3583 
G01 X47.8336 Y50.3930 
G01 X48.6863 Y50.3930 
G01 X48.7702 Y50.3583 
G01 X48.8343 Y50.2942 
G01 X48.8690 Y50.2103 
G01 X48.8690 Y48.6150 
G01 X48.9210 Y48.6150 
G01 X48.9210 Y50.2019 
G01 X48.9097 Y50.2440 
G01 X48.8981 Y50.2720 
G01 X48.8981 Y50.2874 
G01 X48.8941 Y50.3022 
G01 X48.8981 Y50.3323 
G01 X48.8981 Y50.3627 
G01 X48.9040 Y50.3769 
G01 X48.9059 Y50.3921 
G01 X48.9212 Y50.4185 
G01 X48.9328 Y50.4466 
G01 X48.9436 Y50.4574 
G01 X48.9513 Y50.4707 
G01 X48.9754 Y50.4892 
G01 X48.9969 Y50.5107 
G01 X49.0111 Y50.5166 
G01 X49.0233 Y50.5259 
G01 X49.0526 Y50.5338 
G01 X49.0807 Y50.5454 
G01 X49.0961 Y50.5454 
G01 X49.1109 Y50.5494 
G01 X49.1410 Y50.5454 
G01 X49.9564 Y50.5454 
G01 X50.0401 Y50.5107 
G01 X50.1043 Y50.4466 
G01 X50.1390 Y50.3627 
G01 X50.1390 Y46.2390 
G01 X50.3030 Y46.0750 
G01 X50.3627 Y46.0750 
G01 X50.4466 Y46.0403 
G01 X50.5107 Y45.9761 
G01 X50.5454 Y45.8924 
G01 X50.5454 Y44.8585 
G01 X50.5107 Y44.7747 
G01 X49.2754 Y43.5395 
G01 X49.2754 Y40.2717 
G01 X49.2649 Y40.2464 
G01 X49.2407 Y40.1879 
G01 X49.1765 Y40.1237 
G01 X49.0951 Y40.0900 
G01 X49.0928 Y40.0890 
G01 X49.0020 Y40.0890 
G01 X48.9768 Y40.0995 
G01 X48.9182 Y40.1237 
G01 X48.8541 Y40.1879 
G01 X48.7570 Y40.2850 
G01 X47.7630 Y40.2850 
G01 X47.5990 Y40.1210 
G01 X47.5990 Y36.0790 
G01 X47.7630 Y35.9150 
G01 X47.8227 Y35.9150 
G01 X47.9066 Y35.8803 
G01 X47.9707 Y35.8162 
G01 X48.0054 Y35.7323 
G01 X48.0054 Y34.6985 
G01 X47.9707 Y34.6147 
G01 X47.7454 Y34.3894 
G01 X47.6813 Y34.3253 
G01 X47.5975 Y34.2906 
G01 X45.6967 Y34.2906 
G01 X45.6715 Y34.3011 
G01 X45.6129 Y34.3253 
G01 X45.5488 Y34.3894 
G01 X45.5151 Y34.4709 
G01 X45.5141 Y34.4732 
G01 X45.5141 Y34.5639 
G01 X45.5245 Y34.5892 
G01 X45.5488 Y34.6477 
G01 X45.6129 Y34.7119 
G01 X45.7266 Y34.8255 
G01 X45.9746 Y35.0735 
G01 X45.9746 Y35.7323 
G01 X46.0093 Y35.8162 
G01 X46.0734 Y35.8803 
G01 X46.1572 Y35.9150 
G01 X46.2170 Y35.9150 
G01 X46.3810 Y36.0790 
G01 X46.3810 Y40.1210 
G01 X46.2170 Y40.2850 
G01 X45.2230 Y40.2850 
G01 X45.0590 Y40.1210 
G01 X45.0590 Y36.0790 
G01 X45.2230 Y35.9150 
G01 X45.2828 Y35.9150 
G01 X45.3665 Y35.8803 
G01 X45.4307 Y35.8162 
G01 X45.4654 Y35.7323 
G01 X45.4654 Y35.3335 
G01 X45.4307 Y35.2497 
G01 X45.3324 Y35.1514 
G01 X45.2683 Y35.0873 
G01 X45.1844 Y35.0526 
G01 X43.9635 Y35.0526 
G01 X40.4424 Y31.5315 
G01 X40.4414 Y31.5305 
G01 X40.3576 Y31.4958 
G01 X40.2669 Y31.4958 
G01 X40.2417 Y31.5062 
G01 X40.1831 Y31.5305 
G01 X40.1200 Y31.5936 
G01 X40.0574 Y31.7434 
G01 X39.8714 Y31.9294 
G01 X39.6285 Y32.0300 
G01 X39.3166 Y32.0300 
G01 X39.2328 Y32.0647 
G01 X39.2246 Y32.0730 
G01 X39.0820 Y32.0730 
G01 X39.0820 Y31.8539 
G01 X39.0666 Y31.8168 
G01 X39.0382 Y31.7884 
G01 X39.0011 Y31.7730 
G01 X38.8320 Y31.7730 
G01 X38.8320 Y31.5480 
G01 X38.8360 Y31.5384 
G01 X38.8360 Y31.2375 
G01 X38.9366 Y30.9946 
G01 X38.9744 Y30.9568 
G01 X39.0386 Y30.8926 
G01 X39.0449 Y30.8773 
G01 X39.0733 Y30.8088 
G01 X39.0733 Y30.7181 
G01 X39.0552 Y30.6746 
G01 X39.0386 Y30.6343 
G01 X38.9975 Y30.5933 
G01 X38.9918 Y30.5794 
G01 X38.9276 Y30.5153 
G01 X38.8799 Y30.4955 
G01 X38.8796 Y30.4945 
G01 X38.8413 Y30.4280 
G01 X38.8294 Y30.4162 
G01 X38.8366 Y30.4132 
G01 X38.8650 Y30.3848 
G01 X38.8804 Y30.3477 
G01 X38.8804 Y29.0375 
G01 X38.8650 Y29.0004 
G01 X38.8366 Y28.9720 
G01 X38.7995 Y28.9566 
G01 X38.7407 Y28.9566 
G01 X38.7407 Y28.9046 
G01 X38.7935 Y28.9046 
G01 X38.8105 Y28.9116 
G01 X38.8258 Y28.9116 
G01 X38.8406 Y28.9156 
G01 X38.8707 Y28.9116 
G01 X38.9012 Y28.9116 
G01 X38.9153 Y28.9057 
G01 X38.9240 Y28.9046 
G01 X40.7395 Y28.9046 
G01 X40.7752 Y28.8898 
G01 X40.8233 Y28.8699 
G01 X40.8874 Y28.8057 
G01 X40.9211 Y28.7243 
G01 X40.9221 Y28.7219 
G01 X40.9221 Y28.6312 
G01 X40.9073 Y28.5955 
G01 X40.8874 Y28.5474 
G01 X40.8857 Y28.5458 
G01 X40.8233 Y28.4833 
G01 X40.7664 Y28.4265 
G01 X40.7664 Y26.9455 
G01 X40.9502 Y26.7617 
G01 X41.3665 Y26.3454 
G01 X41.4220 Y26.3454 
G01 X41.5057 Y26.3107 
G01 X41.5699 Y26.2465 
G01 X41.6046 Y26.1627 
G01 X41.6046 Y22.2572 
G01 X41.6942 Y22.1676 
G01 X41.9554 Y22.1676 
G01 X42.0391 Y22.1329 
G01 X42.1033 Y22.0688 
G01 X42.1380 Y21.9850 
G01 X42.1380 Y20.2399 
G01 X42.5097 Y19.8682 
G01 X42.6521 Y19.7259 
G01 X42.7162 Y19.6617 
G01 X42.7410 Y19.6018 
G01 X42.7509 Y19.5780 
G01 X42.7509 Y19.4872 
G01 X42.7162 Y19.4034 
G01 X42.6521 Y19.3393 
G01 X42.5921 Y19.3145 
G01 X42.5683 Y19.3046 
G01 X41.9375 Y19.3046 
G01 X41.8537 Y19.3393 
G01 X41.1893 Y20.0037 
G01 X41.1546 Y20.0875 
G01 X41.1546 Y20.1821 
G01 X41.1893 Y20.2659 
G01 X41.3324 Y20.4090 
G01 X41.3324 Y21.8058 
G01 X41.2428 Y21.8954 
G01 X36.5241 Y21.8954 
G01 X36.5153 Y21.8942 
G01 X36.5011 Y21.8884 
G01 X36.4707 Y21.8884 
G01 X36.4405 Y21.8844 
G01 X36.4257 Y21.8884 
G01 X36.4104 Y21.8884 
G01 X36.3935 Y21.8954 
G01 X36.3407 Y21.8954 
G01 X36.3407 Y21.8434 
G01 X36.3995 Y21.8434 
G01 X36.4366 Y21.8280 
G01 X36.4650 Y21.7996 
G01 X36.4804 Y21.7625 
G01 X36.4804 Y20.4523 
G01 X36.4650 Y20.4152 
G01 X36.4366 Y20.3868 
G01 X36.3995 Y20.3714 
G01 X36.3915 Y20.3714 
G01 X36.3915 Y20.0073 
G01 X36.3996 Y19.9992 
G01 X36.4150 Y19.9621 
G01 X36.4150 Y18.8219 
G01 X36.3996 Y18.7848 
G01 X36.3712 Y18.7564 
G01 X36.3341 Y18.7410 
G01 X35.2939 Y18.7410 
G01 X35.2568 Y18.7564 
G01 X35.2284 Y18.7848 
G01 X35.2130 Y18.8219 
G01 X35.2130 Y19.9621 
G01 X35.2284 Y19.9992 
G01 X35.2568 Y20.0276 
G01 X35.2939 Y20.0430 
G01 X35.8085 Y20.0430 
G01 X35.8085 Y20.3714 
G01 X35.8005 Y20.3714 
G01 X35.7634 Y20.3868 
G01 X35.7350 Y20.4152 
G01 X35.7196 Y20.4523 
G01 X35.7196 Y21.7625 
G01 X35.7350 Y21.7996 
G01 X35.7634 Y21.8280 
G01 X35.8005 Y21.8434 
G01 X35.8593 Y21.8434 
G01 X35.8593 Y21.8954 
G01 X35.8065 Y21.8954 
G01 X35.7895 Y21.8884 
G01 X35.7742 Y21.8884 
G01 X35.7594 Y21.8844 
G01 X35.7293 Y21.8884 
G01 X35.6988 Y21.8884 
G01 X35.6847 Y21.8942 
G01 X35.6760 Y21.8954 
G01 X34.9572 Y21.8954 
G01 X34.8676 Y21.8058 
G01 X34.8676 Y21.5446 
G01 X34.8329 Y21.4608 
G01 X34.7687 Y21.3967 
G01 X34.6850 Y21.3620 
G01 X34.5909 Y21.3620 
G01 X34.4833 Y21.2543 
G01 X34.4191 Y21.1902 
G01 X34.3592 Y21.1654 
G01 X34.3353 Y21.1555 
G01 X34.2446 Y21.1555 
G01 X34.1608 Y21.1902 
G01 X34.0967 Y21.2543 
G01 X34.0719 Y21.3143 
G01 X34.0620 Y21.3381 
G01 X34.0620 Y21.9850 
G01 X34.0967 Y22.0688 
G01 X34.1608 Y22.1329 
G01 X34.2446 Y22.1676 
G01 X34.5058 Y22.1676 
G01 X34.5954 Y22.2572 
G01 X34.5954 Y28.5428 
G01 X34.5058 Y28.6324 
G01 X34.2446 Y28.6324 
G01 X34.1608 Y28.6671 
G01 X34.0967 Y28.7312 
G01 X34.0620 Y28.8150 
G01 X34.0620 Y29.4171 
G01 X33.1194 Y30.3596 
G01 X33.0553 Y30.4237 
G01 X33.0206 Y30.5075 
G01 X33.0206 Y35.0305 
G01 X32.4844 Y35.5666 
G01 X32.2365 Y35.8146 
G01 X30.3076 Y35.8146 
G01 X30.2238 Y35.8493 
G01 X30.1597 Y35.9134 
G01 X30.1250 Y35.9972 
G01 X30.1250 Y36.0570 
G01 X29.9610 Y36.2210 
G01 X25.9190 Y36.2210 
G01 X25.7550 Y36.0570 
G01 X25.7550 Y35.0630 
G01 X25.9190 Y34.8990 
G01 X29.9610 Y34.8990 
G01 X30.1250 Y35.0630 
G01 X30.1250 Y35.1228 
G01 X30.1597 Y35.2066 
G01 X30.2238 Y35.2707 
G01 X30.3076 Y35.3054 
G01 X31.9764 Y35.3054 
G01 X32.0603 Y35.2707 
G01 X32.4126 Y34.9184 
G01 X32.4767 Y34.8543 
G01 X32.5114 Y34.7704 
G01 X32.5114 Y32.8697 
G01 X32.5009 Y32.8445 
G01 X32.4767 Y32.7859 
G01 X32.4135 Y32.7228 
G01 X32.3287 Y32.6871 
G01 X32.2380 Y32.6871 
G01 X32.2128 Y32.6975 
G01 X32.1542 Y32.7218 
G01 X32.0901 Y32.7859 
G01 X31.8494 Y33.0266 
G01 X31.6015 Y33.2746 
G01 X30.3076 Y33.2746 
G01 X30.2238 Y33.3093 
G01 X30.1597 Y33.3734 
G01 X30.1250 Y33.4572 
G01 X30.1250 Y33.5170 
G01 X29.9610 Y33.6810 
G01 X25.9190 Y33.6810 
G01 X25.7550 Y33.5170 
G01 X25.7550 Y32.5230 
G01 X25.9190 Y32.3590 
G01 X29.9610 Y32.3590 
G01 X30.1250 Y32.5230 
G01 X30.1250 Y32.5827 
G01 X30.1597 Y32.6666 
G01 X30.2238 Y32.7307 
G01 X30.3076 Y32.7654 
G01 X31.3414 Y32.7654 
G01 X31.4252 Y32.7307 
G01 X31.6505 Y32.5054 
G01 X31.7147 Y32.4412 
G01 X31.7494 Y32.3575 
G01 X31.7494 Y30.4567 
G01 X31.7389 Y30.4315 
G01 X31.7147 Y30.3729 
G01 X31.6505 Y30.3088 
G01 X31.5691 Y30.2751 
G01 X31.5667 Y30.2741 
G01 X31.4760 Y30.2741 
G01 X31.4508 Y30.2845 
G01 X31.3922 Y30.3088 
G01 X31.3281 Y30.3729 
G01 X31.2144 Y30.4866 
G01 X30.9665 Y30.7346 
G01 X30.3076 Y30.7346 
G01 X30.2238 Y30.7693 
G01 X30.1597 Y30.8334 
G01 X30.1250 Y30.9172 
G01 X30.1250 Y30.9770 
G01 X29.9610 Y31.1410 
G01 X25.9190 Y31.1410 
G01 X25.7550 Y30.9770 
G01 X25.7550 Y29.9830 
G01 X25.9190 Y29.8190 
G01 X29.9610 Y29.8190 
G01 X30.1250 Y29.9830 
G01 X30.1250 Y30.0428 
G01 X30.1597 Y30.1266 
G01 X30.2238 Y30.1907 
G01 X30.3076 Y30.2254 
G01 X30.7065 Y30.2254 
G01 X30.7903 Y30.1907 
G01 X31.0156 Y29.9654 
G01 X31.0797 Y29.9013 
G01 X31.1144 Y29.8175 
G01 X31.1144 Y27.9167 
G01 X31.0964 Y27.8732 
G01 X31.0797 Y27.8329 
G01 X31.0156 Y27.7688 
G01 X31.0002 Y27.7624 
G01 X30.9318 Y27.7341 
G01 X30.8410 Y27.7341 
G01 X30.7975 Y27.7521 
G01 X30.7572 Y27.7688 
G01 X30.6931 Y27.8329 
G01 X30.4585 Y28.0676 
G01 X30.3076 Y28.0676 
G01 X30.2238 Y28.1023 
G01 X30.1597 Y28.1664 
G01 X30.1250 Y28.2502 
G01 X30.1250 Y28.4370 
G01 X29.9610 Y28.6010 
G01 X25.9190 Y28.6010 
G01 X25.7550 Y28.4370 
G01 X25.7550 Y27.4430 
G01 X25.9190 Y27.2790 
G01 X29.9610 Y27.2790 
G01 X30.0507 Y27.3687 
G01 X30.0872 Y27.4052 
G01 X30.1148 Y27.4328 
G01 X30.1568 Y27.4502 
G01 X30.1986 Y27.4675 
G01 X30.2442 Y27.4675 
G01 X30.2893 Y27.4675 
G01 X30.3340 Y27.4490 
G01 X30.3731 Y27.4328 
G01 X30.4088 Y27.3971 
G01 X30.4447 Y27.3612 
G01 X30.4602 Y27.3238 
G01 X30.4794 Y27.2775 
G01 X30.4794 Y27.2322 
G01 X30.4794 Y26.5645 
G01 X30.6633 Y26.3807 
G01 X30.9681 Y26.0759 
G01 X31.0322 Y26.0117 
G01 X31.0570 Y25.9518 
G01 X31.0669 Y25.9279 
G01 X31.0669 Y25.8372 
G01 X31.0322 Y25.7534 
G01 X30.9681 Y25.6893 
G01 X30.9081 Y25.6645 
G01 X30.8843 Y25.6546 
G01 X30.3076 Y25.6546 
G01 X30.2238 Y25.6893 
G01 X30.1597 Y25.7534 
G01 X30.1250 Y25.8372 
G01 X30.1250 Y25.8970 
G01 X29.9610 Y26.0610 
G01 X25.9190 Y26.0610 
G01 X25.7550 Y25.8970 
G01 X25.7550 Y24.9030 
G01 X25.9190 Y24.7390 
G01 X29.9610 Y24.7390 
G01 X30.1250 Y24.9030 
G01 X30.1250 Y24.9627 
G01 X30.1597 Y25.0465 
G01 X30.2238 Y25.1107 
G01 X30.3076 Y25.1454 
G01 X30.5795 Y25.1454 
G01 X30.6633 Y25.1107 
G01 X31.0285 Y24.7454 
G01 X32.3893 Y24.7454 
G01 X32.4731 Y24.7107 
G01 X32.5372 Y24.6466 
G01 X32.5719 Y24.5628 
G01 X32.5719 Y24.4720 
G01 X32.5372 Y24.3882 
G01 X32.5181 Y24.3692 
G01 X32.4731 Y24.3241 
G01 X31.3173 Y23.1684 
G01 X31.2982 Y23.1493 
G01 X31.2144 Y23.1146 
G01 X30.3076 Y23.1146 
G01 X30.2238 Y23.1493 
G01 X30.1597 Y23.2134 
G01 X30.1250 Y23.2972 
G01 X30.1250 Y23.3570 
G01 X29.9610 Y23.5210 
G01 X25.9190 Y23.5210 
G01 X25.7550 Y23.3570 
G01 X25.7550 Y22.3630 
G01 X25.9190 Y22.1990 
G01 X29.9610 Y22.1990 
G01 X30.1250 Y22.3630 
G01 X30.1250 Y22.4228 
G01 X30.1597 Y22.5066 
G01 X30.2238 Y22.5707 
G01 X30.3076 Y22.6054 
G01 X31.4745 Y22.6054 
G01 X31.7091 Y22.8401 
G01 X31.7732 Y22.9042 
G01 X31.8143 Y22.9212 
G01 X31.8570 Y22.9389 
G01 X31.9477 Y22.9389 
G01 X32.0181 Y22.9097 
G01 X32.0315 Y22.9042 
G01 X32.0957 Y22.8401 
G01 X32.1127 Y22.7990 
G01 X32.1304 Y22.7563 
G01 X32.1304 Y21.1095 
G01 X32.0957 Y21.0257 
G01 X31.7434 Y20.6734 
G01 X31.6792 Y20.6093 
G01 X31.5954 Y20.5746 
G01 X30.3076 Y20.5746 
G01 X30.2238 Y20.6093 
G01 X30.1597 Y20.6734 
G01 X30.1250 Y20.7572 
G01 X30.1250 Y20.8170 
G01 X29.9610 Y20.9810 
G01 X25.9190 Y20.9810 
G01 X25.7550 Y20.8170 
G01 X25.7550 Y19.8230 
G01 X25.9190 Y19.6590 
G01 X29.9610 Y19.6590 
G01 X30.1250 Y19.8230 
G01 X30.1250 Y19.8828 
G01 X30.1597 Y19.9666 
G01 X30.2238 Y20.0307 
G01 X30.3076 Y20.0654 
G01 X31.8555 Y20.0654 
G01 X32.0393 Y20.2492 
G01 X32.6396 Y20.8495 
G01 X32.6396 Y22.1319 
G01 X32.6544 Y22.1676 
G01 X32.6743 Y22.2157 
G01 X32.7384 Y22.2799 
G01 X32.8199 Y22.3136 
G01 X32.8222 Y22.3146 
G01 X32.9130 Y22.3146 
G01 X32.9486 Y22.2998 
G01 X32.9967 Y22.2799 
G01 X32.9984 Y22.2782 
G01 X33.0609 Y22.2157 
G01 X33.1090 Y22.1676 
G01 X33.3702 Y22.1676 
G01 X33.4539 Y22.1329 
G01 X33.5181 Y22.0688 
G01 X33.5528 Y21.9850 
G01 X33.5528 Y21.0079 
G01 X33.5181 Y20.9241 
G01 X31.8764 Y19.2825 
G01 X31.8764 Y18.5695 
G01 X31.8417 Y18.4857 
G01 X31.4894 Y18.1334 
G01 X31.4253 Y18.0693 
G01 X31.3653 Y18.0445 
G01 X31.3415 Y18.0346 
G01 X30.3076 Y18.0346 
G01 X30.2238 Y18.0693 
G01 X30.1597 Y18.1334 
G01 X30.1250 Y18.2172 
G01 X30.1250 Y18.2770 
G01 X29.9610 Y18.4410 
G01 X25.9190 Y18.4410 
G01 X25.7550 Y18.2770 
G01 X25.7550 Y17.2830 
G01 X25.9190 Y17.1190 
G01 X29.9610 Y17.1190 
G01 X30.1250 Y17.2830 
G01 X30.1250 Y17.3427 
G01 X30.1597 Y17.4265 
G01 X30.2238 Y17.4907 
G01 X30.3076 Y17.5254 
G01 X31.6015 Y17.5254 
G01 X31.7853 Y17.7092 
G01 X32.2171 Y18.1411 
G01 X32.2812 Y18.2052 
G01 X32.3650 Y18.2399 
G01 X32.4558 Y18.2399 
G01 X32.5395 Y18.2052 
G01 X32.6037 Y18.1411 
G01 X32.6384 Y18.0573 
G01 X32.6384 Y15.9025 
G01 X32.6037 Y15.8187 
G01 X32.3784 Y15.5934 
G01 X32.3143 Y15.5293 
G01 X32.2304 Y15.4946 
G01 X30.3076 Y15.4946 
G01 X30.2238 Y15.5293 
G01 X30.1597 Y15.5934 
G01 X30.1250 Y15.6772 
G01 X30.1250 Y15.7370 
G01 X29.9610 Y15.9010 
G01 X25.9190 Y15.9010 
G01 X25.7550 Y15.7370 
G01 X25.7550 Y14.7430 
G01 X25.9190 Y14.5790 
G01 X29.9610 Y14.5790 
G01 X30.1250 Y14.7430 
G01 X30.1250 Y14.8027 
G01 X30.1597 Y14.8865 
G01 X30.2238 Y14.9507 
G01 X30.3076 Y14.9854 
G01 X32.4905 Y14.9854 
G01 X32.8996 Y15.3946 
G01 X33.1476 Y15.6425 
G01 X33.1476 Y18.8955 
G01 X33.1823 Y18.9793 
G01 X33.3447 Y19.1417 
G01 X33.4285 Y19.1764 
G01 X33.7084 Y19.1764 
G01 X33.7921 Y19.1417 
G01 X33.8563 Y19.0775 
G01 X33.8910 Y18.9937 
G01 X33.8910 Y18.7786 
G01 X33.9343 Y18.7353 
G01 X33.9985 Y18.6712 
G01 X34.0192 Y18.6211 
G01 X34.0332 Y18.5874 
G01 X34.0332 Y18.4966 
G01 X33.9985 Y18.4128 
G01 X33.8910 Y18.3054 
G01 X33.8910 Y17.1496 
G01 X33.8563 Y17.0658 
G01 X33.6490 Y16.8585 
G01 X33.6490 Y15.9075 
G01 X33.8265 Y15.7300 
G01 X34.7775 Y15.7300 
G01 X35.0498 Y16.0023 
G01 X35.1313 Y16.0361 
G01 X35.1336 Y16.0371 
G01 X35.2244 Y16.0371 
G01 X35.2496 Y16.0266 
G01 X35.3081 Y16.0023 
G01 X35.3723 Y15.9382 
G01 X35.4986 Y15.8118 
G01 X35.5628 Y15.7477 
G01 X35.5975 Y15.6639 
G01 X35.5975 Y15.4994 
G01 X35.5628 Y15.4156 
G01 X35.5076 Y15.3604 
G01 X35.4070 Y15.1175 
G01 X35.4070 Y14.8545 
G01 X35.5076 Y14.6116 
G01 X35.6936 Y14.4256 
G01 X35.9365 Y14.3250 
G01 X36.1995 Y14.3250 
G01 X36.2882 Y14.3618 
G01 X36.3358 Y14.3815 
G01 X36.3720 Y14.3965 
G01 X36.4627 Y14.3965 
G01 X36.5466 Y14.3618 
G01 X36.6107 Y14.2976 
G01 X36.6355 Y14.2377 
G01 X36.6454 Y14.2138 
G01 X36.6454 Y13.3055 
G01 X36.6107 Y13.2217 
G01 X36.4424 Y13.0534 
G01 X36.3783 Y12.9893 
G01 X36.2944 Y12.9546 
G01 X30.3076 Y12.9546 
G01 X30.2238 Y12.9893 
G01 X30.1597 Y13.0534 
G01 X30.1250 Y13.1372 
G01 X30.1250 Y13.1970 
G01 X29.9610 Y13.3610 
G01 X25.9190 Y13.3610 
G01 X25.7550 Y13.1970 
G01 X25.7550 Y12.2030 
G01 X25.9190 Y12.0390 
G01 X29.9610 Y12.0390 
G01 X30.1250 Y12.2030 
G01 X30.1250 Y12.2628 
G01 X30.1597 Y12.3466 
G01 X30.2238 Y12.4107 
G01 X30.3076 Y12.4454 
G01 X36.5545 Y12.4454 
G01 X36.7383 Y12.6293 
G01 X37.1546 Y13.0455 
G01 X37.1546 Y16.8063 
G01 X37.1893 Y16.8901 
G01 X37.2534 Y16.9543 
G01 X37.3372 Y16.9890 
G01 X38.2824 Y16.9890 
G01 X38.3705 Y17.0771 
G01 X38.4346 Y17.1413 
G01 X38.4500 Y17.1476 
G01 X38.5184 Y17.1760 
G01 X38.6091 Y17.1760 
G01 X38.6527 Y17.1579 
G01 X38.6929 Y17.1413 
G01 X38.7416 Y17.0926 
G01 X38.9845 Y16.9920 
G01 X39.2475 Y16.9920 
G01 X39.4904 Y17.0926 
G01 X39.5577 Y17.1599 
G01 X39.6218 Y17.2241 
G01 X39.6719 Y17.2448 
G01 X39.7056 Y17.2588 
G01 X39.7963 Y17.2588 
G01 X39.8802 Y17.2241 
G01 X39.9443 Y17.1599 
G01 X39.9650 Y17.1098 
G01 X39.9790 Y17.0761 
G01 X39.9790 Y13.2190 
G01 X40.1430 Y13.0550 
G01 X41.1370 Y13.0550 
G01 X41.3010 Y13.2190 
G01 X41.3010 Y17.2610 
G01 X41.1370 Y17.4250 
G01 X41.0772 Y17.4250 
G01 X40.9934 Y17.4597 
G01 X40.9293 Y17.5238 
G01 X40.8946 Y17.6076 
G01 X40.8946 Y18.4383 
G01 X40.9293 Y18.5221 
G01 X40.9934 Y18.5862 
G01 X41.0772 Y18.6209 
G01 X41.1679 Y18.6209 
G01 X41.2517 Y18.5862 
G01 X41.2598 Y18.5781 
G01 X41.3159 Y18.5221 
G01 X41.6775 Y18.1604 
G01 X42.5174 Y18.1604 
G01 X42.6013 Y18.1257 
G01 X42.8265 Y17.9004 
G01 X42.8907 Y17.8362 
G01 X42.9254 Y17.7524 
G01 X42.9254 Y17.6076 
G01 X42.8907 Y17.5238 
G01 X42.8265 Y17.4597 
G01 X42.7428 Y17.4250 
G01 X42.6830 Y17.4250 
G01 X42.5190 Y17.2610 
G01 X42.5190 Y13.2190 
G01 X42.6830 Y13.0550 
G01 X43.6770 Y13.0550 
G01 X43.8410 Y13.2190 
G01 X43.8410 Y17.2610 
G01 X43.6770 Y17.4250 
G01 X43.6172 Y17.4250 
G01 X43.5334 Y17.4597 
G01 X43.4693 Y17.5238 
G01 X43.4346 Y17.6076 
G01 X43.4346 Y18.0125 
G01 X43.1866 Y18.2604 
G01 X43.0729 Y18.3741 
G01 X43.0088 Y18.4382 
G01 X42.9840 Y18.4982 
G01 X42.9741 Y18.5220 
G01 X42.9741 Y18.6127 
G01 X43.0088 Y18.6965 
G01 X43.0729 Y18.7607 
G01 X43.1329 Y18.7855 
G01 X43.1567 Y18.7954 
G01 X45.0575 Y18.7954 
G01 X45.1412 Y18.7607 
G01 X45.3665 Y18.5354 
G01 X45.4307 Y18.4713 
G01 X45.4654 Y18.3875 
G01 X45.4654 Y17.6076 
G01 X45.4307 Y17.5238 
G01 X45.3665 Y17.4597 
G01 X45.2828 Y17.4250 
G01 X45.2230 Y17.4250 
G01 X45.0590 Y17.2610 
G01 X45.0590 Y13.2190 
G01 X45.2230 Y13.0550 
G01 X46.2170 Y13.0550 
G01 X46.3810 Y13.2190 
G01 X46.3810 Y17.2610 
G01 X46.2170 Y17.4250 
G01 X46.1572 Y17.4250 
G01 X46.0734 Y17.4597 
G01 X46.0093 Y17.5238 
G01 X45.9746 Y17.6076 
G01 X45.9746 Y18.3113 
G01 X46.0093 Y18.3951 
G01 X46.0734 Y18.4592 
G01 X46.1572 Y18.4939 
G01 X46.2480 Y18.4939 
G01 X46.3317 Y18.4592 
G01 X46.3433 Y18.4476 
G01 X46.3959 Y18.3951 
G01 X47.0701 Y17.7208 
G01 X47.2655 Y17.5254 
G01 X53.5123 Y17.5254 
G01 X53.5962 Y17.4907 
G01 X53.6603 Y17.4265 
G01 X53.6950 Y17.3427 
G01 X53.6950 Y17.2830 
G01 X53.8590 Y17.1190 
G01 X57.9010 Y17.1190 
G01 X58.0650 Y17.2830 
G01 X58.0650 Y18.2770 
G01 X57.9010 Y18.4410 
G01 X53.8590 Y18.4410 
G01 X53.6950 Y18.2770 
G01 X53.6950 Y18.2172 
G01 X53.6603 Y18.1334 
G01 X53.5962 Y18.0693 
G01 X53.5123 Y18.0346 
G01 X47.5255 Y18.0346 
G01 X47.4417 Y18.0693 
G01 X45.3175 Y20.1936 
G01 X42.9535 Y20.1936 
G01 X42.8697 Y20.2283 
G01 X42.7460 Y20.3520 
G01 X42.6819 Y20.4161 
G01 X42.6472 Y20.4999 
G01 X42.6472 Y21.9850 
G01 X42.6819 Y22.0688 
G01 X42.7460 Y22.1329 
G01 X42.8298 Y22.1676 
G01 X43.0910 Y22.1676 
G01 X43.1806 Y22.2572 
G01 X43.1806 Y22.7563 
G01 X43.2153 Y22.8401 
G01 X43.2794 Y22.9042 
G01 X43.3632 Y22.9389 
G01 X43.4539 Y22.9389 
G01 X43.5377 Y22.9042 
G01 X43.5787 Y22.8633 
G01 X43.6019 Y22.8401 
G01 X46.1518 Y20.2902 
G01 X46.3765 Y20.0654 
G01 X53.5123 Y20.0654 
G01 X53.5962 Y20.0307 
G01 X53.6603 Y19.9666 
G01 X53.6950 Y19.8828 
G01 X53.6950 Y19.8230 
G01 X53.8590 Y19.6590 
G01 X57.9010 Y19.6590 
G01 X58.0650 Y19.8230 
G01 X58.0650 Y20.8170 
G01 X57.9010 Y20.9810 
G01 X53.8590 Y20.9810 
G01 X53.6950 Y20.8170 
G01 X53.6950 Y20.7572 
G01 X53.6603 Y20.6734 
G01 X53.5962 Y20.6093 
G01 X53.5123 Y20.5746 
G01 X46.6365 Y20.5746 
G01 X46.5527 Y20.6093 
G01 X43.6379 Y23.5241 
G01 X43.5738 Y23.5882 
G01 X43.5391 Y23.6720 
G01 X43.5391 Y23.7628 
G01 X43.5738 Y23.8466 
G01 X43.6379 Y23.9107 
G01 X43.7217 Y23.9454 
G01 X53.7783 Y23.9454 
G01 X53.8036 Y23.9349 
G01 X53.8621 Y23.9107 
G01 X53.9253 Y23.8475 
G01 X53.9610 Y23.7628 
G01 X53.9610 Y23.6720 
G01 X53.9505 Y23.6468 
G01 X53.9263 Y23.5882 
G01 X53.8621 Y23.5241 
G01 X53.6950 Y23.3570 
G01 X53.6950 Y22.3630 
G01 X53.8590 Y22.1990 
G01 X57.9010 Y22.1990 
G01 X58.0650 Y22.3630 
G01 X58.0650 Y23.3570 
G01 X57.9010 Y23.5210 
G01 X57.6532 Y23.5210 
G01 X57.6231 Y23.5170 
G01 X57.6082 Y23.5210 
G01 X57.5929 Y23.5210 
G01 X57.5648 Y23.5326 
G01 X57.5354 Y23.5405 
G01 X57.5233 Y23.5498 
G01 X57.5091 Y23.5557 
G01 X57.4876 Y23.5772 
G01 X57.4635 Y23.5957 
G01 X57.4558 Y23.6090 
G01 X57.4450 Y23.6198 
G01 X57.4333 Y23.6479 
G01 X57.4181 Y23.6743 
G01 X57.4161 Y23.6895 
G01 X57.4103 Y23.7036 
G01 X57.4103 Y23.7341 
G01 X57.4063 Y23.7642 
G01 X57.4103 Y23.7790 
G01 X57.4103 Y23.7943 
G01 X57.4219 Y23.8224 
G01 X57.4330 Y23.8638 
G01 X57.4330 Y24.0330 
G01 X57.3810 Y24.0330 
G01 X57.3810 Y23.8639 
G01 X57.3656 Y23.8268 
G01 X57.3372 Y23.7984 
G01 X57.3001 Y23.7830 
G01 X56.1599 Y23.7830 
G01 X56.1228 Y23.7984 
G01 X56.0944 Y23.8268 
G01 X56.0790 Y23.8639 
G01 X56.0790 Y24.9041 
G01 X56.0944 Y24.9412 
G01 X56.1228 Y24.9696 
G01 X56.1599 Y24.9850 
G01 X56.3790 Y24.9850 
G01 X56.3790 Y25.0370 
G01 X56.1598 Y25.0370 
G01 X56.1209 Y25.0266 
G01 X56.0861 Y25.0064 
G01 X56.0733 Y24.9937 
G01 X56.0410 Y24.9613 
G01 X56.0092 Y24.9295 
G01 X55.9938 Y24.9232 
G01 X55.9254 Y24.8948 
G01 X55.8346 Y24.8948 
G01 X55.7903 Y24.9132 
G01 X55.7509 Y24.9295 
G01 X55.7107 Y24.9697 
G01 X55.6867 Y24.9937 
G01 X55.6434 Y25.0370 
G01 X54.4166 Y25.0370 
G01 X54.3270 Y24.9474 
G01 X54.3270 Y24.6372 
G01 X54.2923 Y24.5534 
G01 X54.2281 Y24.4893 
G01 X54.1444 Y24.4546 
G01 X52.8787 Y24.4546 
G01 X52.7949 Y24.4893 
G01 X52.7308 Y24.5534 
G01 X52.6961 Y24.6372 
G01 X52.6961 Y24.7279 
G01 X52.7308 Y24.8117 
G01 X52.7491 Y24.8301 
G01 X52.7949 Y24.8759 
G01 X53.9004 Y25.9814 
G01 X53.9187 Y25.9997 
G01 X54.0025 Y26.0344 
G01 X54.1444 Y26.0344 
G01 X54.2281 Y25.9997 
G01 X54.2923 Y25.9355 
G01 X54.3270 Y25.8517 
G01 X54.3270 Y25.7256 
G01 X54.4166 Y25.6360 
G01 X55.6434 Y25.6360 
G01 X55.6867 Y25.6793 
G01 X55.7119 Y25.7045 
G01 X55.7508 Y25.7435 
G01 X55.7915 Y25.7603 
G01 X55.8346 Y25.7782 
G01 X55.9254 Y25.7782 
G01 X55.9958 Y25.7490 
G01 X56.0091 Y25.7435 
G01 X56.0420 Y25.7107 
G01 X56.0733 Y25.6793 
G01 X56.0861 Y25.6666 
G01 X56.1209 Y25.6464 
G01 X56.1598 Y25.6360 
G01 X56.3790 Y25.6360 
G01 X56.3790 Y25.6880 
G01 X56.1599 Y25.6880 
G01 X56.1228 Y25.7034 
G01 X56.0944 Y25.7318 
G01 X56.0790 Y25.7689 
G01 X56.0790 Y26.8091 
G01 X56.0944 Y26.8462 
G01 X56.1228 Y26.8746 
G01 X56.1599 Y26.8900 
G01 X57.3001 Y26.8900 
G01 X57.3372 Y26.8746 
G01 X57.3656 Y26.8462 
G01 X57.3810 Y26.8091 
G01 X57.3810 Y26.6400 
G01 X57.4330 Y26.6400 
G01 X57.4330 Y26.8091 
G01 X57.4226 Y26.8480 
G01 X57.4024 Y26.8829 
G01 X57.3635 Y26.9218 
G01 X57.3418 Y26.9743 
G01 X57.3288 Y27.0056 
G01 X57.3288 Y27.0515 
G01 X57.3288 Y27.0963 
G01 X57.3452 Y27.1360 
G01 X57.3635 Y27.1801 
G01 X57.4277 Y27.2443 
G01 X57.4801 Y27.2660 
G01 X57.5114 Y27.2790 
G01 X57.5573 Y27.2790 
G01 X57.6021 Y27.2790 
G01 X57.9010 Y27.2790 
G01 X58.0650 Y27.4430 
G01 X58.0650 Y28.4370 
G01 X57.9010 Y28.6010 
G01 X53.8590 Y28.6010 
G01 X53.6950 Y28.4370 
G01 X53.6950 Y27.4430 
G01 X53.8590 Y27.2790 
G01 X54.2485 Y27.2790 
G01 X54.2983 Y27.2584 
G01 X54.3323 Y27.2443 
G01 X54.3965 Y27.1802 
G01 X54.4312 Y27.0964 
G01 X54.4312 Y27.0056 
G01 X54.4106 Y26.9559 
G01 X54.3965 Y26.9218 
G01 X54.3952 Y26.9205 
G01 X54.3323 Y26.8577 
G01 X54.3270 Y26.8524 
G01 X54.3270 Y26.7262 
G01 X54.2923 Y26.6424 
G01 X54.2281 Y26.5783 
G01 X54.1444 Y26.5436 
G01 X53.7425 Y26.5436 
G01 X52.5524 Y25.3534 
G01 X52.4883 Y25.2893 
G01 X52.4044 Y25.2546 
G01 X49.4877 Y25.2546 
G01 X49.4625 Y25.2651 
G01 X49.4039 Y25.2893 
G01 X49.3398 Y25.3534 
G01 X49.3061 Y25.4349 
G01 X49.3051 Y25.4372 
G01 X49.3051 Y25.5280 
G01 X49.3155 Y25.5532 
G01 X49.3398 Y25.6117 
G01 X49.4039 Y25.6759 
G01 X49.5366 Y25.8085 
G01 X49.7846 Y26.0565 
G01 X49.7846 Y26.1137 
G01 X49.8193 Y26.1975 
G01 X49.8834 Y26.2617 
G01 X49.9672 Y26.2964 
G01 X50.0808 Y26.2964 
G01 X50.1241 Y26.3397 
G01 X50.1493 Y26.3649 
G01 X50.1882 Y26.4039 
G01 X50.2289 Y26.4207 
G01 X50.2720 Y26.4386 
G01 X50.3628 Y26.4386 
G01 X50.4332 Y26.4094 
G01 X50.4465 Y26.4039 
G01 X50.4794 Y26.3711 
G01 X50.5107 Y26.3397 
G01 X50.5234 Y26.3270 
G01 X50.5583 Y26.3068 
G01 X50.5973 Y26.2964 
G01 X50.8164 Y26.2964 
G01 X50.8164 Y26.3484 
G01 X50.5973 Y26.3484 
G01 X50.5602 Y26.3638 
G01 X50.5318 Y26.3922 
G01 X50.5164 Y26.4293 
G01 X50.5164 Y27.4695 
G01 X50.5318 Y27.5066 
G01 X50.5602 Y27.5350 
G01 X50.5973 Y27.5504 
G01 X51.7375 Y27.5504 
G01 X51.7746 Y27.5350 
G01 X51.8030 Y27.5066 
G01 X51.8184 Y27.4695 
G01 X51.8184 Y27.3004 
G01 X51.8704 Y27.3004 
G01 X51.8704 Y27.4695 
G01 X51.8600 Y27.5084 
G01 X51.8398 Y27.5433 
G01 X51.8136 Y27.5695 
G01 X51.7984 Y27.6062 
G01 X51.7789 Y27.6533 
G01 X51.7789 Y27.6992 
G01 X51.7789 Y27.7440 
G01 X51.7986 Y27.7916 
G01 X51.8136 Y27.8278 
G01 X51.8474 Y27.8616 
G01 X51.8704 Y27.8846 
G01 X51.8704 Y28.0108 
G01 X51.9051 Y28.0946 
G01 X51.9692 Y28.1587 
G01 X52.0530 Y28.1934 
G01 X52.6835 Y28.1934 
G01 X53.7276 Y29.2375 
G01 X53.7917 Y29.3017 
G01 X53.8755 Y29.3364 
G01 X58.1445 Y29.3364 
G01 X58.6806 Y29.8726 
G01 X58.9286 Y30.1205 
G01 X58.9286 Y32.3635 
G01 X58.0175 Y33.2746 
G01 X57.3045 Y33.2746 
G01 X57.2207 Y33.3093 
G01 X56.2334 Y34.2966 
G01 X56.1693 Y34.3607 
G01 X56.1346 Y34.4445 
G01 X56.1346 Y45.8924 
G01 X56.1693 Y45.9761 
G01 X56.2334 Y46.0403 
G01 X56.3172 Y46.0750 
G01 X56.3770 Y46.0750 
G01 X56.5410 Y46.2390 
G01 X56.5410 Y50.3627 
G01 X56.5757 Y50.4466 
G01 X56.6398 Y50.5107 
G01 X56.7236 Y50.5454 
G01 X75.7627 Y50.5454 
G01 X75.8465 Y50.5107 
G01 X75.9107 Y50.4466 
G01 X75.9454 Y50.3627 
G01 X75.9454 Y0.4372 
G01 X75.9107 Y0.3534 
G01 X75.8465 Y0.2893 
G01 X75.7627 Y0.2546 
G01 X0.4372 Y0.2546 
G01 X0.3534 Y0.2893 
G01 X0.2893 Y0.3534 
G00 Z0.5000 
G00 X2.2735 Y2.1411 
G01 Z-0.0800 F5.00  
G01 X2.4464 Y2.0695 F25.00 
G01 X2.6336 Y2.0695 
G01 X2.8065 Y2.1411 
G01 X2.9389 Y2.2735 
G01 X3.0105 Y2.4464 
G01 X3.0105 Y2.6336 
G01 X2.9389 Y2.8065 
G01 X2.8065 Y2.9389 
G01 X2.6336 Y3.0105 
G01 X2.4464 Y3.0105 
G01 X2.2735 Y2.9389 
G01 X2.1411 Y2.8065 
G01 X2.0695 Y2.6336 
G01 X2.0695 Y2.4464 
G01 X2.1411 Y2.2735 
G01 X2.2735 Y2.1411 
G00 Z0.5000 
G00 X2.2830 Y2.2051 
G01 Z-0.0800 F5.00  
G01 X2.2051 Y2.2830 F25.00 
G01 X2.1500 Y2.3785 
G01 X2.1215 Y2.4849 
G01 X2.1215 Y2.5951 
G01 X2.1500 Y2.7015 
G01 X2.2051 Y2.7970 
G01 X2.2830 Y2.8749 
G01 X2.3785 Y2.9300 
G01 X2.4849 Y2.9585 
G01 X2.5951 Y2.9585 
G01 X2.7015 Y2.9300 
G01 X2.7970 Y2.8749 
G01 X2.8749 Y2.7970 
G01 X2.9300 Y2.7015 
G01 X2.9585 Y2.5951 
G01 X2.9585 Y2.4849 
G01 X2.9300 Y2.3785 
G01 X2.8749 Y2.2830 
G01 X2.7970 Y2.2051 
G01 X2.7015 Y2.1500 
G01 X2.5951 Y2.1215 
G01 X2.4849 Y2.1215 
G01 X2.3785 Y2.1500 
G01 X2.2830 Y2.2051 
G00 Z0.5000 
G00 X25.9190 Y9.4990 
G01 Z-0.0800 F5.00  
G01 X29.9610 Y9.4990 F25.00 
G01 X30.0526 Y9.5906 
G01 X30.1168 Y9.6548 
G01 X30.1767 Y9.6796 
G01 X30.2006 Y9.6895 
G01 X31.2366 Y9.6895 
G01 X31.3204 Y9.6548 
G01 X31.3756 Y9.5996 
G01 X31.6185 Y9.4990 
G01 X31.8815 Y9.4990 
G01 X32.1244 Y9.5996 
G01 X32.3104 Y9.7856 
G01 X32.4110 Y10.0285 
G01 X32.4110 Y10.2915 
G01 X32.3104 Y10.5344 
G01 X32.1244 Y10.7204 
G01 X31.8815 Y10.8210 
G01 X31.6185 Y10.8210 
G01 X31.3756 Y10.7204 
G01 X31.3204 Y10.6652 
G01 X31.2366 Y10.6305 
G01 X30.2006 Y10.6305 
G01 X30.1753 Y10.6410 
G01 X30.1168 Y10.6652 
G01 X30.0526 Y10.7293 
G01 X29.9610 Y10.8210 
G01 X25.9190 Y10.8210 
G01 X25.7550 Y10.6570 
G01 X25.7550 Y9.6630 
G01 X25.9190 Y9.4990 
G00 Z0.5000 
G00 X25.9058 Y9.5857 
G01 Z-0.0800 F5.00  
G01 X25.8417 Y9.6498 F25.00 
G01 X25.8070 Y9.7336 
G01 X25.8070 Y10.5863 
G01 X25.8417 Y10.6701 
G01 X25.9058 Y10.7343 
G01 X25.9896 Y10.7690 
G01 X29.8904 Y10.7690 
G01 X29.9742 Y10.7343 
G01 X30.0383 Y10.6701 
G01 X30.0730 Y10.5863 
G01 X30.0730 Y10.5785 
G01 X31.3072 Y10.5785 
G01 X31.3618 Y10.6330 
G01 X31.4615 Y10.6997 
G01 X31.5724 Y10.7456 
G01 X31.6900 Y10.7690 
G01 X31.8100 Y10.7690 
G01 X31.9276 Y10.7456 
G01 X32.0385 Y10.6997 
G01 X32.1382 Y10.6330 
G01 X32.2230 Y10.5482 
G01 X32.2897 Y10.4485 
G01 X32.3356 Y10.3376 
G01 X32.3590 Y10.2200 
G01 X32.3590 Y10.1000 
G01 X32.3356 Y9.9824 
G01 X32.2897 Y9.8715 
G01 X32.2230 Y9.7718 
G01 X32.1382 Y9.6870 
G01 X32.0385 Y9.6203 
G01 X31.9276 Y9.5744 
G01 X31.8100 Y9.5510 
G01 X31.6900 Y9.5510 
G01 X31.5724 Y9.5744 
G01 X31.4615 Y9.6203 
G01 X31.3618 Y9.6870 
G01 X31.3072 Y9.7415 
G01 X30.0730 Y9.7415 
G01 X30.0730 Y9.7336 
G01 X30.0383 Y9.6498 
G01 X29.9742 Y9.5857 
G01 X29.8904 Y9.5510 
G01 X25.9896 Y9.5510 
G01 X25.9058 Y9.5857 
G00 Z0.5000 
G00 X25.9058 Y12.1257 
G01 Z-0.0800 F5.00  
G01 X25.8417 Y12.1898 F25.00 
G01 X25.8070 Y12.2736 
G01 X25.8070 Y13.1264 
G01 X25.8417 Y13.2102 
G01 X25.9058 Y13.2743 
G01 X25.9896 Y13.3090 
G01 X29.8904 Y13.3090 
G01 X29.9742 Y13.2743 
G01 X30.0383 Y13.2102 
G01 X30.0730 Y13.1264 
G01 X30.0730 Y12.9026 
G01 X36.3651 Y12.9026 
G01 X36.6974 Y13.2349 
G01 X36.6974 Y20.3714 
G01 X36.6005 Y20.3714 
G01 X36.5634 Y20.3868 
G01 X36.5350 Y20.4152 
G01 X36.5196 Y20.4523 
G01 X36.5196 Y21.7625 
G01 X36.5350 Y21.7996 
G01 X36.5634 Y21.8280 
G01 X36.6005 Y21.8434 
G01 X37.1995 Y21.8434 
G01 X37.2366 Y21.8280 
G01 X37.2650 Y21.7996 
G01 X37.2804 Y21.7625 
G01 X37.2804 Y20.4523 
G01 X37.2650 Y20.4152 
G01 X37.2366 Y20.3868 
G01 X37.1995 Y20.3714 
G01 X37.1026 Y20.3714 
G01 X37.1026 Y13.1107 
G01 X37.0718 Y13.0362 
G01 X36.6208 Y12.5852 
G01 X36.5638 Y12.5282 
G01 X36.4893 Y12.4974 
G01 X30.0730 Y12.4974 
G01 X30.0730 Y12.2736 
G01 X30.0383 Y12.1898 
G01 X29.9742 Y12.1257 
G01 X29.8904 Y12.0910 
G01 X25.9896 Y12.0910 
G01 X25.9058 Y12.1257 
G00 Z0.5000 
G00 X25.9058 Y14.6657 
G01 Z-0.0800 F5.00  
G01 X25.8417 Y14.7298 F25.00 
G01 X25.8070 Y14.8136 
G01 X25.8070 Y15.6663 
G01 X25.8417 Y15.7501 
G01 X25.9058 Y15.8143 
G01 X25.9896 Y15.8490 
G01 X29.8904 Y15.8490 
G01 X29.9742 Y15.8143 
G01 X30.0383 Y15.7501 
G01 X30.0730 Y15.6663 
G01 X30.0730 Y15.4426 
G01 X32.3011 Y15.4426 
G01 X32.6904 Y15.8319 
G01 X32.6904 Y19.0903 
G01 X32.7212 Y19.1648 
G01 X33.1022 Y19.5458 
G01 X33.1592 Y19.6028 
G01 X33.2337 Y19.6336 
G01 X33.9430 Y19.6336 
G01 X33.9430 Y19.9621 
G01 X33.9584 Y19.9992 
G01 X33.9868 Y20.0276 
G01 X34.0239 Y20.0430 
G01 X34.2144 Y20.0430 
G01 X34.2144 Y20.8683 
G01 X34.2452 Y20.9428 
G01 X34.3022 Y20.9998 
G01 X34.5816 Y21.2792 
G01 X34.6561 Y21.3100 
G01 X34.9196 Y21.3100 
G01 X34.9196 Y21.7625 
G01 X34.9350 Y21.7996 
G01 X34.9634 Y21.8280 
G01 X35.0005 Y21.8434 
G01 X35.5995 Y21.8434 
G01 X35.6366 Y21.8280 
G01 X35.6650 Y21.7996 
G01 X35.6804 Y21.7625 
G01 X35.6804 Y20.4523 
G01 X35.6650 Y20.4152 
G01 X35.6366 Y20.3868 
G01 X35.5995 Y20.3714 
G01 X35.0005 Y20.3714 
G01 X34.9634 Y20.3868 
G01 X34.9350 Y20.4152 
G01 X34.9196 Y20.4523 
G01 X34.9196 Y20.9048 
G01 X34.7803 Y20.9048 
G01 X34.6196 Y20.7441 
G01 X34.6196 Y20.0430 
G01 X35.0641 Y20.0430 
G01 X35.1012 Y20.0276 
G01 X35.1296 Y19.9992 
G01 X35.1450 Y19.9621 
G01 X35.1450 Y18.8219 
G01 X35.1296 Y18.7848 
G01 X35.1012 Y18.7564 
G01 X35.0641 Y18.7410 
G01 X34.0239 Y18.7410 
G01 X33.9868 Y18.7564 
G01 X33.9584 Y18.7848 
G01 X33.9430 Y18.8219 
G01 X33.9430 Y19.2284 
G01 X33.3579 Y19.2284 
G01 X33.0956 Y18.9661 
G01 X33.0956 Y15.7077 
G01 X33.0648 Y15.6332 
G01 X33.0078 Y15.5762 
G01 X32.4998 Y15.0682 
G01 X32.4253 Y15.0374 
G01 X30.0730 Y15.0374 
G01 X30.0730 Y14.8136 
G01 X30.0383 Y14.7298 
G01 X29.9742 Y14.6657 
G01 X29.8904 Y14.6310 
G01 X25.9896 Y14.6310 
G01 X25.9058 Y14.6657 
G00 Z0.5000 
G00 X25.9058 Y17.2057 
G01 Z-0.0800 F5.00  
G01 X25.8417 Y17.2698 F25.00 
G01 X25.8070 Y17.3536 
G01 X25.8070 Y18.2064 
G01 X25.8417 Y18.2902 
G01 X25.9058 Y18.3543 
G01 X25.9896 Y18.3890 
G01 X29.8904 Y18.3890 
G01 X29.9742 Y18.3543 
G01 X30.0383 Y18.2902 
G01 X30.0730 Y18.2064 
G01 X30.0730 Y17.9826 
G01 X31.4121 Y17.9826 
G01 X31.9284 Y18.4989 
G01 X31.9284 Y19.2173 
G01 X31.9592 Y19.2918 
G01 X32.0162 Y19.3488 
G01 X33.6048 Y20.9373 
G01 X33.6048 Y22.2196 
G01 X33.1523 Y22.2196 
G01 X33.1152 Y22.2350 
G01 X33.0868 Y22.2634 
G01 X33.0714 Y22.3005 
G01 X33.0714 Y22.8995 
G01 X33.0868 Y22.9366 
G01 X33.1152 Y22.9650 
G01 X33.1523 Y22.9804 
G01 X34.4625 Y22.9804 
G01 X34.4996 Y22.9650 
G01 X34.5280 Y22.9366 
G01 X34.5434 Y22.8995 
G01 X34.5434 Y22.3005 
G01 X34.5280 Y22.2634 
G01 X34.4996 Y22.2350 
G01 X34.4625 Y22.2196 
G01 X34.0100 Y22.2196 
G01 X34.0100 Y20.8131 
G01 X33.9792 Y20.7386 
G01 X32.3336 Y19.0931 
G01 X32.3336 Y18.3747 
G01 X32.3028 Y18.3002 
G01 X31.6678 Y17.6652 
G01 X31.6108 Y17.6082 
G01 X31.5363 Y17.5774 
G01 X30.0730 Y17.5774 
G01 X30.0730 Y17.3536 
G01 X30.0383 Y17.2698 
G01 X29.9742 Y17.2057 
G01 X29.8904 Y17.1710 
G01 X25.9896 Y17.1710 
G01 X25.9058 Y17.2057 
G00 Z0.5000 
G00 X25.9058 Y19.7457 
G01 Z-0.0800 F5.00  
G01 X25.8417 Y19.8098 F25.00 
G01 X25.8070 Y19.8936 
G01 X25.8070 Y20.7463 
G01 X25.8417 Y20.8301 
G01 X25.9058 Y20.8943 
G01 X25.9896 Y20.9290 
G01 X29.8904 Y20.9290 
G01 X29.9742 Y20.8943 
G01 X30.0383 Y20.8301 
G01 X30.0730 Y20.7463 
G01 X30.0730 Y20.5226 
G01 X31.6661 Y20.5226 
G01 X32.1824 Y21.0389 
G01 X32.1824 Y23.0273 
G01 X32.2132 Y23.1018 
G01 X32.2702 Y23.1588 
G01 X32.6832 Y23.5718 
G01 X32.7577 Y23.6026 
G01 X33.0714 Y23.6026 
G01 X33.0714 Y23.6995 
G01 X33.0868 Y23.7366 
G01 X33.1152 Y23.7650 
G01 X33.1523 Y23.7804 
G01 X34.4625 Y23.7804 
G01 X34.4996 Y23.7650 
G01 X34.5280 Y23.7366 
G01 X34.5434 Y23.6995 
G01 X34.5434 Y23.1005 
G01 X34.5280 Y23.0634 
G01 X34.4996 Y23.0350 
G01 X34.4625 Y23.0196 
G01 X33.1523 Y23.0196 
G01 X33.1152 Y23.0350 
G01 X33.0868 Y23.0634 
G01 X33.0714 Y23.1005 
G01 X33.0714 Y23.1974 
G01 X32.8819 Y23.1974 
G01 X32.5876 Y22.9031 
G01 X32.5876 Y20.9147 
G01 X32.5568 Y20.8402 
G01 X31.9218 Y20.2052 
G01 X31.8648 Y20.1482 
G01 X31.7903 Y20.1174 
G01 X30.0730 Y20.1174 
G01 X30.0730 Y19.8936 
G01 X30.0383 Y19.8098 
G01 X29.9742 Y19.7457 
G01 X29.8904 Y19.7110 
G01 X25.9896 Y19.7110 
G01 X25.9058 Y19.7457 
G00 Z0.5000 
G00 X25.9058 Y22.2857 
G01 Z-0.0800 F5.00  
G01 X25.8417 Y22.3498 F25.00 
G01 X25.8070 Y22.4336 
G01 X25.8070 Y23.2863 
G01 X25.8417 Y23.3701 
G01 X25.9058 Y23.4343 
G01 X25.9896 Y23.4690 
G01 X29.8904 Y23.4690 
G01 X29.9742 Y23.4343 
G01 X30.0383 Y23.3701 
G01 X30.0730 Y23.2863 
G01 X30.0730 Y23.0626 
G01 X31.2851 Y23.0626 
G01 X32.5942 Y24.3718 
G01 X32.6687 Y24.4026 
G01 X33.0714 Y24.4026 
G01 X33.0714 Y24.4995 
G01 X33.0868 Y24.5366 
G01 X33.1152 Y24.5650 
G01 X33.1523 Y24.5804 
G01 X34.4625 Y24.5804 
G01 X34.4996 Y24.5650 
G01 X34.5280 Y24.5366 
G01 X34.5434 Y24.4995 
G01 X34.5434 Y23.9005 
G01 X34.5280 Y23.8634 
G01 X34.4996 Y23.8350 
G01 X34.4625 Y23.8196 
G01 X33.1523 Y23.8196 
G01 X33.1152 Y23.8350 
G01 X33.0868 Y23.8634 
G01 X33.0714 Y23.9005 
G01 X33.0714 Y23.9974 
G01 X32.7929 Y23.9974 
G01 X31.5408 Y22.7452 
G01 X31.4838 Y22.6882 
G01 X31.4093 Y22.6574 
G01 X30.0730 Y22.6574 
G01 X30.0730 Y22.4336 
G01 X30.0383 Y22.3498 
G01 X29.9742 Y22.2857 
G01 X29.8904 Y22.2510 
G01 X25.9896 Y22.2510 
G01 X25.9058 Y22.2857 
G00 Z0.5000 
G00 X25.9058 Y24.8257 
G01 Z-0.0800 F5.00  
G01 X25.8417 Y24.8898 F25.00 
G01 X25.8070 Y24.9736 
G01 X25.8070 Y25.8264 
G01 X25.8417 Y25.9102 
G01 X25.9058 Y25.9743 
G01 X25.9896 Y26.0090 
G01 X29.8904 Y26.0090 
G01 X29.9742 Y25.9743 
G01 X30.0383 Y25.9102 
G01 X30.0730 Y25.8264 
G01 X30.0730 Y25.6026 
G01 X30.7743 Y25.6026 
G01 X30.8488 Y25.5718 
G01 X30.9058 Y25.5148 
G01 X31.2179 Y25.2026 
G01 X33.0714 Y25.2026 
G01 X33.0714 Y25.2995 
G01 X33.0868 Y25.3366 
G01 X33.1152 Y25.3650 
G01 X33.1523 Y25.3804 
G01 X34.4625 Y25.3804 
G01 X34.4996 Y25.3650 
G01 X34.5280 Y25.3366 
G01 X34.5434 Y25.2995 
G01 X34.5434 Y24.7005 
G01 X34.5280 Y24.6634 
G01 X34.4996 Y24.6350 
G01 X34.4625 Y24.6196 
G01 X33.1523 Y24.6196 
G01 X33.1152 Y24.6350 
G01 X33.0868 Y24.6634 
G01 X33.0714 Y24.7005 
G01 X33.0714 Y24.7974 
G01 X31.0937 Y24.7974 
G01 X31.0192 Y24.8282 
G01 X30.6501 Y25.1974 
G01 X30.0730 Y25.1974 
G01 X30.0730 Y24.9736 
G01 X30.0383 Y24.8898 
G01 X29.9742 Y24.8257 
G01 X29.8904 Y24.7910 
G01 X25.9896 Y24.7910 
G01 X25.9058 Y24.8257 
G00 Z0.5000 
G00 X25.9058 Y27.3657 
G01 Z-0.0800 F5.00  
G01 X25.8417 Y27.4298 F25.00 
G01 X25.8070 Y27.5136 
G01 X25.8070 Y28.3664 
G01 X25.8417 Y28.4502 
G01 X25.9058 Y28.5143 
G01 X25.9896 Y28.5490 
G01 X29.8904 Y28.5490 
G01 X29.9742 Y28.5143 
G01 X30.0383 Y28.4502 
G01 X30.0730 Y28.3664 
G01 X30.0730 Y28.0156 
G01 X30.3933 Y28.0156 
G01 X30.4678 Y27.9848 
G01 X30.5248 Y27.9278 
G01 X30.9058 Y27.5468 
G01 X30.9366 Y27.4723 
G01 X30.9366 Y26.7539 
G01 X31.6879 Y26.0026 
G01 X33.0714 Y26.0026 
G01 X33.0714 Y26.0995 
G01 X33.0868 Y26.1366 
G01 X33.1152 Y26.1650 
G01 X33.1523 Y26.1804 
G01 X34.4625 Y26.1804 
G01 X34.4996 Y26.1650 
G01 X34.5280 Y26.1366 
G01 X34.5434 Y26.0995 
G01 X34.5434 Y25.5005 
G01 X34.5280 Y25.4634 
G01 X34.4996 Y25.4350 
G01 X34.4625 Y25.4196 
G01 X33.1523 Y25.4196 
G01 X33.1152 Y25.4350 
G01 X33.0868 Y25.4634 
G01 X33.0714 Y25.5005 
G01 X33.0714 Y25.5974 
G01 X31.5637 Y25.5974 
G01 X31.4892 Y25.6282 
G01 X30.6192 Y26.4982 
G01 X30.5622 Y26.5552 
G01 X30.5314 Y26.6297 
G01 X30.5314 Y27.3481 
G01 X30.2691 Y27.6104 
G01 X30.0730 Y27.6104 
G01 X30.0730 Y27.5136 
G01 X30.0383 Y27.4298 
G01 X29.9742 Y27.3657 
G01 X29.8904 Y27.3310 
G01 X25.9896 Y27.3310 
G01 X25.9058 Y27.3657 
G00 Z0.5000 
G00 X25.9058 Y29.9057 
G01 Z-0.0800 F5.00  
G01 X25.8417 Y29.9698 F25.00 
G01 X25.8070 Y30.0536 
G01 X25.8070 Y30.9063 
G01 X25.8417 Y30.9901 
G01 X25.9058 Y31.0543 
G01 X25.9896 Y31.0890 
G01 X29.8904 Y31.0890 
G01 X29.9742 Y31.0543 
G01 X30.0383 Y30.9901 
G01 X30.0730 Y30.9063 
G01 X30.0730 Y30.6826 
G01 X30.9013 Y30.6826 
G01 X30.9758 Y30.6518 
G01 X31.0328 Y30.5948 
G01 X31.5408 Y30.0868 
G01 X31.5716 Y30.0123 
G01 X31.5716 Y27.1349 
G01 X31.9039 Y26.8026 
G01 X33.0714 Y26.8026 
G01 X33.0714 Y26.8995 
G01 X33.0868 Y26.9366 
G01 X33.1152 Y26.9650 
G01 X33.1523 Y26.9804 
G01 X34.4625 Y26.9804 
G01 X34.4996 Y26.9650 
G01 X34.5280 Y26.9366 
G01 X34.5434 Y26.8995 
G01 X34.5434 Y26.3005 
G01 X34.5280 Y26.2634 
G01 X34.4996 Y26.2350 
G01 X34.4625 Y26.2196 
G01 X33.1523 Y26.2196 
G01 X33.1152 Y26.2350 
G01 X33.0868 Y26.2634 
G01 X33.0714 Y26.3005 
G01 X33.0714 Y26.3974 
G01 X31.7797 Y26.3974 
G01 X31.7052 Y26.4282 
G01 X31.2542 Y26.8792 
G01 X31.1972 Y26.9362 
G01 X31.1664 Y27.0107 
G01 X31.1664 Y29.8881 
G01 X30.7771 Y30.2774 
G01 X30.0730 Y30.2774 
G01 X30.0730 Y30.0536 
G01 X30.0383 Y29.9698 
G01 X29.9742 Y29.9057 
G01 X29.8904 Y29.8710 
G01 X25.9896 Y29.8710 
G01 X25.9058 Y29.9057 
G00 Z0.5000 
G00 X25.9058 Y32.4457 
G01 Z-0.0800 F5.00  
G01 X25.8417 Y32.5098 F25.00 
G01 X25.8070 Y32.5936 
G01 X25.8070 Y33.4464 
G01 X25.8417 Y33.5301 
G01 X25.9058 Y33.5943 
G01 X25.9896 Y33.6290 
G01 X29.8904 Y33.6290 
G01 X29.9742 Y33.5943 
G01 X30.0383 Y33.5301 
G01 X30.0730 Y33.4464 
G01 X30.0730 Y33.2226 
G01 X31.5363 Y33.2226 
G01 X31.6108 Y33.1918 
G01 X31.6678 Y33.1348 
G01 X32.1758 Y32.6268 
G01 X32.2066 Y32.5523 
G01 X32.2066 Y27.7699 
G01 X32.3739 Y27.6026 
G01 X33.0714 Y27.6026 
G01 X33.0714 Y27.6995 
G01 X33.0868 Y27.7366 
G01 X33.1152 Y27.7650 
G01 X33.1523 Y27.7804 
G01 X34.4625 Y27.7804 
G01 X34.4996 Y27.7650 
G01 X34.5280 Y27.7366 
G01 X34.5434 Y27.6995 
G01 X34.5434 Y27.1005 
G01 X34.5280 Y27.0634 
G01 X34.4996 Y27.0350 
G01 X34.4625 Y27.0196 
G01 X33.1523 Y27.0196 
G01 X33.1152 Y27.0350 
G01 X33.0868 Y27.0634 
G01 X33.0714 Y27.1005 
G01 X33.0714 Y27.1974 
G01 X32.2497 Y27.1974 
G01 X32.1752 Y27.2282 
G01 X31.8892 Y27.5142 
G01 X31.8322 Y27.5712 
G01 X31.8014 Y27.6457 
G01 X31.8014 Y32.4281 
G01 X31.4121 Y32.8174 
G01 X30.0730 Y32.8174 
G01 X30.0730 Y32.5936 
G01 X30.0383 Y32.5098 
G01 X29.9742 Y32.4457 
G01 X29.8904 Y32.4110 
G01 X25.9896 Y32.4110 
G01 X25.9058 Y32.4457 
G00 Z0.5000 
G00 X25.9058 Y34.9857 
G01 Z-0.0800 F5.00  
G01 X25.8417 Y35.0498 F25.00 
G01 X25.8070 Y35.1336 
G01 X25.8070 Y35.9864 
G01 X25.8417 Y36.0701 
G01 X25.9058 Y36.1343 
G01 X25.9896 Y36.1690 
G01 X29.8904 Y36.1690 
G01 X29.9742 Y36.1343 
G01 X30.0383 Y36.0701 
G01 X30.0730 Y35.9864 
G01 X30.0730 Y35.7626 
G01 X32.1713 Y35.7626 
G01 X32.2458 Y35.7318 
G01 X32.3028 Y35.6748 
G01 X32.9378 Y35.0398 
G01 X32.9686 Y34.9653 
G01 X32.9686 Y30.4369 
G01 X33.9792 Y29.4264 
G01 X34.0100 Y29.3519 
G01 X34.0100 Y28.5804 
G01 X34.4625 Y28.5804 
G01 X34.4996 Y28.5650 
G01 X34.5280 Y28.5366 
G01 X34.5434 Y28.4995 
G01 X34.5434 Y27.9005 
G01 X34.5280 Y27.8634 
G01 X34.4996 Y27.8350 
G01 X34.4625 Y27.8196 
G01 X33.1523 Y27.8196 
G01 X33.1152 Y27.8350 
G01 X33.0868 Y27.8634 
G01 X33.0714 Y27.9005 
G01 X33.0714 Y28.4995 
G01 X33.0868 Y28.5366 
G01 X33.1152 Y28.5650 
G01 X33.1523 Y28.5804 
G01 X33.6048 Y28.5804 
G01 X33.6048 Y29.2277 
G01 X32.6512 Y30.1812 
G01 X32.5942 Y30.2382 
G01 X32.5634 Y30.3127 
G01 X32.5634 Y34.8411 
G01 X32.0471 Y35.3574 
G01 X30.0730 Y35.3574 
G01 X30.0730 Y35.1336 
G01 X30.0383 Y35.0498 
G01 X29.9742 Y34.9857 
G01 X29.8904 Y34.9510 
G01 X25.9896 Y34.9510 
G01 X25.9058 Y34.9857 
G00 Z0.5000 
G00 X33.7044 Y36.6428 
G01 Z-0.0800 F5.00  
G01 X33.6890 Y36.6799 F25.00 
G01 X33.6890 Y37.8201 
G01 X33.7044 Y37.8572 
G01 X33.7328 Y37.8856 
G01 X33.7699 Y37.9010 
G01 X34.8101 Y37.9010 
G01 X34.8472 Y37.8856 
G01 X34.8756 Y37.8572 
G01 X34.8910 Y37.8201 
G01 X34.8910 Y37.3120 
G01 X35.5040 Y37.3120 
G01 X35.5040 Y37.4201 
G01 X35.5194 Y37.4572 
G01 X35.5478 Y37.4856 
G01 X35.5849 Y37.5010 
G01 X36.1751 Y37.5010 
G01 X36.2122 Y37.4856 
G01 X36.2406 Y37.4572 
G01 X36.2560 Y37.4201 
G01 X36.2560 Y36.1799 
G01 X36.2406 Y36.1428 
G01 X36.2122 Y36.1144 
G01 X36.1751 Y36.0990 
G01 X35.5849 Y36.0990 
G01 X35.5478 Y36.1144 
G01 X35.5194 Y36.1428 
G01 X35.5040 Y36.1799 
G01 X35.5040 Y36.6020 
G01 X34.8173 Y36.6020 
G01 X34.8101 Y36.5990 
G01 X33.7699 Y36.5990 
G01 X33.7328 Y36.6144 
G01 X33.7044 Y36.6428 
G00 Z0.5000 
G00 X33.7044 Y38.3428 
G01 Z-0.0800 F5.00  
G01 X33.6890 Y38.3799 F25.00 
G01 X33.6890 Y39.5201 
G01 X33.7044 Y39.5572 
G01 X33.7328 Y39.5856 
G01 X33.7699 Y39.6010 
G01 X33.8715 Y39.6010 
G01 X33.8715 Y40.1972 
G01 X33.8170 Y40.2518 
G01 X33.7503 Y40.3515 
G01 X33.7044 Y40.4624 
G01 X33.6810 Y40.5800 
G01 X33.6810 Y40.7000 
G01 X33.7044 Y40.8176 
G01 X33.7503 Y40.9285 
G01 X33.8170 Y41.0282 
G01 X33.8715 Y41.0828 
G01 X33.8715 Y41.5841 
G01 X33.9000 Y41.6905 
G01 X33.9551 Y41.7860 
G01 X34.4631 Y42.2940 
G01 X34.5410 Y42.3719 
G01 X34.6365 Y42.4270 
G01 X34.7429 Y42.4555 
G01 X35.3290 Y42.4555 
G01 X35.3290 Y42.5571 
G01 X35.3444 Y42.5942 
G01 X35.3728 Y42.6226 
G01 X35.4099 Y42.6380 
G01 X36.5501 Y42.6380 
G01 X36.5872 Y42.6226 
G01 X36.6156 Y42.5942 
G01 X36.6310 Y42.5571 
G01 X36.6310 Y41.5169 
G01 X36.6156 Y41.4798 
G01 X36.5872 Y41.4514 
G01 X36.5501 Y41.4360 
G01 X35.4099 Y41.4360 
G01 X35.3728 Y41.4514 
G01 X35.3444 Y41.4798 
G01 X35.3290 Y41.5169 
G01 X35.3290 Y41.6185 
G01 X34.9713 Y41.6185 
G01 X34.7085 Y41.3556 
G01 X34.7085 Y41.0828 
G01 X34.7630 Y41.0282 
G01 X34.8297 Y40.9285 
G01 X34.8756 Y40.8176 
G01 X34.8990 Y40.7000 
G01 X34.8990 Y40.5800 
G01 X34.8756 Y40.4624 
G01 X34.8297 Y40.3515 
G01 X34.7630 Y40.2518 
G01 X34.7085 Y40.1972 
G01 X34.7085 Y39.6010 
G01 X34.8101 Y39.6010 
G01 X34.8472 Y39.5856 
G01 X34.8756 Y39.5572 
G01 X34.8910 Y39.5201 
G01 X34.8910 Y38.3799 
G01 X34.8756 Y38.3428 
G01 X34.8472 Y38.3144 
G01 X34.8101 Y38.2990 
G01 X33.7699 Y38.2990 
G01 X33.7328 Y38.3144 
G01 X33.7044 Y38.3428 
G00 Z0.5000 
G00 X35.5250 Y38.1803 
G01 Z-0.0800 F5.00  
G01 X35.5250 Y38.7372 F25.00 
G01 X35.5194 Y38.7428 
G01 X35.5040 Y38.7799 
G01 X35.5040 Y40.0201 
G01 X35.5194 Y40.0572 
G01 X35.5478 Y40.0856 
G01 X35.5849 Y40.1010 
G01 X36.1751 Y40.1010 
G01 X36.2122 Y40.0856 
G01 X36.2406 Y40.0572 
G01 X36.2560 Y40.0201 
G01 X36.2560 Y38.7799 
G01 X36.2406 Y38.7428 
G01 X36.2350 Y38.7372 
G01 X36.2350 Y38.5820 
G01 X37.4250 Y38.5820 
G01 X37.4250 Y38.7372 
G01 X37.4194 Y38.7428 
G01 X37.4040 Y38.7799 
G01 X37.4040 Y40.0201 
G01 X37.4194 Y40.0572 
G01 X37.4250 Y40.0628 
G01 X37.4250 Y41.4360 
G01 X37.1099 Y41.4360 
G01 X37.0728 Y41.4514 
G01 X37.0444 Y41.4798 
G01 X37.0290 Y41.5169 
G01 X37.0290 Y42.5571 
G01 X37.0444 Y42.5942 
G01 X37.0728 Y42.6226 
G01 X37.1099 Y42.6380 
G01 X37.2615 Y42.6380 
G01 X37.2615 Y44.0851 
G01 X37.2900 Y44.1915 
G01 X37.3451 Y44.2870 
G01 X37.6815 Y44.6233 
G01 X37.6815 Y46.1270 
G01 X37.6736 Y46.1270 
G01 X37.5898 Y46.1617 
G01 X37.5257 Y46.2258 
G01 X37.4910 Y46.3096 
G01 X37.4910 Y50.2103 
G01 X37.5257 Y50.2942 
G01 X37.5898 Y50.3583 
G01 X37.6736 Y50.3930 
G01 X38.5264 Y50.3930 
G01 X38.6101 Y50.3583 
G01 X38.6743 Y50.2942 
G01 X38.7090 Y50.2103 
G01 X38.7090 Y46.3096 
G01 X38.6743 Y46.2258 
G01 X38.6101 Y46.1617 
G01 X38.5264 Y46.1270 
G01 X38.5185 Y46.1270 
G01 X38.5185 Y44.3949 
G01 X38.4900 Y44.2885 
G01 X38.4349 Y44.1930 
G01 X38.3570 Y44.1151 
G01 X38.0985 Y43.8567 
G01 X38.0985 Y42.6380 
G01 X38.2501 Y42.6380 
G01 X38.2872 Y42.6226 
G01 X38.3156 Y42.5942 
G01 X38.3310 Y42.5571 
G01 X38.3310 Y41.5169 
G01 X38.3156 Y41.4798 
G01 X38.2872 Y41.4514 
G01 X38.2501 Y41.4360 
G01 X38.1350 Y41.4360 
G01 X38.1350 Y40.0628 
G01 X38.1406 Y40.0572 
G01 X38.1560 Y40.0201 
G01 X38.1560 Y38.7799 
G01 X38.1406 Y38.7428 
G01 X38.1350 Y38.7372 
G01 X38.1350 Y38.1803 
G01 X38.1108 Y38.0900 
G01 X38.0641 Y38.0090 
G01 X37.9980 Y37.9429 
G01 X37.9170 Y37.8962 
G01 X37.8267 Y37.8720 
G01 X35.8333 Y37.8720 
G01 X35.7430 Y37.8962 
G01 X35.6620 Y37.9429 
G01 X35.5959 Y38.0090 
G01 X35.5492 Y38.0900 
G01 X35.5250 Y38.1803 
G00 Z0.5000 
G00 X36.4694 Y38.7428 
G01 Z-0.0800 F5.00  
G01 X36.4540 Y38.7799 F25.00 
G01 X36.4540 Y40.0201 
G01 X36.4694 Y40.0572 
G01 X36.4750 Y40.0628 
G01 X36.4750 Y40.1120 
G01 X36.4212 Y40.1658 
G01 X36.3820 Y40.1580 
G01 X36.2620 Y40.1580 
G01 X36.1444 Y40.1814 
G01 X36.0335 Y40.2273 
G01 X35.9338 Y40.2940 
G01 X35.8490 Y40.3788 
G01 X35.7823 Y40.4785 
G01 X35.7364 Y40.5894 
G01 X35.7130 Y40.7070 
G01 X35.7130 Y40.8270 
G01 X35.7364 Y40.9446 
G01 X35.7823 Y41.0555 
G01 X35.8490 Y41.1552 
G01 X35.9338 Y41.2400 
G01 X36.0335 Y41.3067 
G01 X36.1444 Y41.3526 
G01 X36.2620 Y41.3760 
G01 X36.3820 Y41.3760 
G01 X36.4996 Y41.3526 
G01 X36.6105 Y41.3067 
G01 X36.7102 Y41.2400 
G01 X36.7950 Y41.1552 
G01 X36.8617 Y41.0555 
G01 X36.9076 Y40.9446 
G01 X36.9310 Y40.8270 
G01 X36.9310 Y40.7070 
G01 X36.9232 Y40.6678 
G01 X37.1141 Y40.4770 
G01 X37.1608 Y40.3960 
G01 X37.1850 Y40.3057 
G01 X37.1850 Y40.0628 
G01 X37.1906 Y40.0572 
G01 X37.2060 Y40.0201 
G01 X37.2060 Y38.7799 
G01 X37.1906 Y38.7428 
G01 X37.1622 Y38.7144 
G01 X37.1251 Y38.6990 
G01 X36.5349 Y38.6990 
G01 X36.4978 Y38.7144 
G01 X36.4694 Y38.7428 
G00 Z0.5000 
G00 X38.7170 Y38.3366 
G01 Z-0.0800 F5.00  
G01 X38.7603 Y38.2933 F25.00 
G01 X38.7855 Y38.2681 
G01 X38.8245 Y38.2291 
G01 X38.8413 Y38.1885 
G01 X38.8592 Y38.1454 
G01 X38.8592 Y38.0546 
G01 X38.8300 Y37.9842 
G01 X38.8245 Y37.9708 
G01 X38.7917 Y37.9380 
G01 X38.7603 Y37.9067 
G01 X38.7476 Y37.8939 
G01 X38.7274 Y37.8590 
G01 X38.7170 Y37.8201 
G01 X38.7170 Y37.6010 
G01 X38.7690 Y37.6010 
G01 X38.7690 Y37.8201 
G01 X38.7844 Y37.8572 
G01 X38.8128 Y37.8856 
G01 X38.8499 Y37.9010 
G01 X39.8901 Y37.9010 
G01 X39.9272 Y37.8856 
G01 X39.9556 Y37.8572 
G01 X39.9710 Y37.8201 
G01 X39.9710 Y37.6010 
G01 X40.0390 Y37.6010 
G01 X40.0390 Y37.8201 
G01 X40.0544 Y37.8572 
G01 X40.0828 Y37.8856 
G01 X40.1199 Y37.9010 
G01 X41.1601 Y37.9010 
G01 X41.1972 Y37.8856 
G01 X41.2256 Y37.8572 
G01 X41.2410 Y37.8201 
G01 X41.2410 Y36.6799 
G01 X41.2256 Y36.6428 
G01 X41.1972 Y36.6144 
G01 X41.1601 Y36.5990 
G01 X40.8204 Y36.5990 
G01 X40.8083 Y36.5940 
G01 X40.7490 Y36.5940 
G01 X40.7490 Y36.5420 
G01 X40.7979 Y36.5420 
G01 X40.8902 Y36.5038 
G01 X40.9608 Y36.4332 
G01 X40.9990 Y36.3409 
G01 X40.9990 Y35.5411 
G01 X40.9608 Y35.4488 
G01 X40.8902 Y35.3782 
G01 X40.7979 Y35.3400 
G01 X40.7490 Y35.3400 
G01 X40.7490 Y35.2880 
G01 X40.7879 Y35.2880 
G01 X40.8650 Y35.3086 
G01 X40.9340 Y35.3485 
G01 X40.9905 Y35.4049 
G01 X41.0303 Y35.4740 
G01 X41.0430 Y35.5213 
G01 X41.0430 Y35.5366 
G01 X41.0546 Y35.5647 
G01 X41.0625 Y35.5941 
G01 X41.0718 Y35.6062 
G01 X41.0777 Y35.6204 
G01 X41.0992 Y35.6419 
G01 X41.1177 Y35.6660 
G01 X41.1310 Y35.6737 
G01 X41.1418 Y35.6845 
G01 X41.1700 Y35.6962 
G01 X41.1963 Y35.7114 
G01 X41.2115 Y35.7134 
G01 X41.2256 Y35.7193 
G01 X41.2561 Y35.7193 
G01 X41.2862 Y35.7232 
G01 X41.3010 Y35.7193 
G01 X41.3163 Y35.7193 
G01 X41.3445 Y35.7076 
G01 X41.3738 Y35.6997 
G01 X41.3860 Y35.6904 
G01 X41.4001 Y35.6845 
G01 X41.4217 Y35.6630 
G01 X41.4458 Y35.6445 
G01 X41.4534 Y35.6313 
G01 X41.4643 Y35.6204 
G01 X41.4759 Y35.5923 
G01 X41.4911 Y35.5660 
G01 X41.4931 Y35.5508 
G01 X41.4990 Y35.5366 
G01 X41.4990 Y35.5062 
G01 X41.5030 Y35.4761 
G01 X41.4999 Y35.4646 
G01 X41.6765 Y35.2880 
G01 X42.6275 Y35.2880 
G01 X42.8050 Y35.4655 
G01 X42.8050 Y36.4165 
G01 X42.6618 Y36.5597 
G01 X42.5977 Y36.6238 
G01 X42.5630 Y36.7076 
G01 X42.5630 Y37.8634 
G01 X42.5197 Y37.9067 
G01 X42.4555 Y37.9708 
G01 X42.4218 Y38.0523 
G01 X42.4208 Y38.0546 
G01 X42.4208 Y38.1454 
G01 X42.4356 Y38.1810 
G01 X42.4555 Y38.2291 
G01 X42.4571 Y38.2307 
G01 X42.5197 Y38.2933 
G01 X42.5630 Y38.3366 
G01 X42.5630 Y39.5634 
G01 X42.4734 Y39.6530 
G01 X41.4374 Y39.6530 
G01 X41.3919 Y39.6530 
G01 X41.3469 Y39.6530 
G01 X41.3056 Y39.6701 
G01 X41.2631 Y39.6877 
G01 X41.2315 Y39.7193 
G01 X41.1989 Y39.7518 
G01 X41.1814 Y39.7941 
G01 X41.1642 Y39.8356 
G01 X41.1642 Y39.8813 
G01 X41.1642 Y39.9263 
G01 X41.1813 Y39.9677 
G01 X41.1989 Y40.0101 
G01 X41.2004 Y40.0117 
G01 X41.3010 Y40.2545 
G01 X41.3010 Y40.5175 
G01 X41.2004 Y40.7604 
G01 X41.0144 Y40.9464 
G01 X40.7715 Y41.0470 
G01 X40.5085 Y41.0470 
G01 X40.2656 Y40.9464 
G01 X40.0796 Y40.7604 
G01 X39.9790 Y40.5175 
G01 X39.9790 Y40.2545 
G01 X40.0796 Y40.0117 
G01 X40.0809 Y40.0104 
G01 X40.0987 Y39.9676 
G01 X40.1157 Y39.9266 
G01 X40.1158 Y39.8812 
G01 X40.1158 Y39.8359 
G01 X40.0986 Y39.7941 
G01 X40.0812 Y39.7521 
G01 X40.0484 Y39.7192 
G01 X40.0171 Y39.6878 
G01 X39.9744 Y39.6701 
G01 X39.9334 Y39.6530 
G01 X39.8880 Y39.6530 
G01 X39.8427 Y39.6529 
G01 X38.8066 Y39.6530 
G01 X38.7170 Y39.5634 
G01 X38.7170 Y38.3366 
G00 Z0.5000 
G00 X38.7844 Y38.3428 
G01 Z-0.0800 F5.00  
G01 X38.7690 Y38.3799 F25.00 
G01 X38.7690 Y39.5201 
G01 X38.7844 Y39.5572 
G01 X38.8128 Y39.5856 
G01 X38.8499 Y39.6010 
G01 X39.8901 Y39.6010 
G01 X39.9272 Y39.5856 
G01 X39.9556 Y39.5572 
G01 X39.9710 Y39.5201 
G01 X39.9710 Y39.3685 
G01 X40.0390 Y39.3685 
G01 X40.0390 Y39.5201 
G01 X40.0544 Y39.5572 
G01 X40.0828 Y39.5856 
G01 X40.1199 Y39.6010 
G01 X40.2215 Y39.6010 
G01 X40.2215 Y39.9432 
G01 X40.1670 Y39.9978 
G01 X40.1003 Y40.0975 
G01 X40.0544 Y40.2084 
G01 X40.0310 Y40.3260 
G01 X40.0310 Y40.4460 
G01 X40.0544 Y40.5636 
G01 X40.1003 Y40.6745 
G01 X40.1670 Y40.7742 
G01 X40.2518 Y40.8590 
G01 X40.3515 Y40.9257 
G01 X40.4624 Y40.9716 
G01 X40.5800 Y40.9950 
G01 X40.7000 Y40.9950 
G01 X40.8176 Y40.9716 
G01 X40.9285 Y40.9257 
G01 X41.0282 Y40.8590 
G01 X41.1130 Y40.7742 
G01 X41.1797 Y40.6745 
G01 X41.2256 Y40.5636 
G01 X41.2490 Y40.4460 
G01 X41.2490 Y40.3260 
G01 X41.2256 Y40.2084 
G01 X41.1797 Y40.0975 
G01 X41.1130 Y39.9978 
G01 X41.0585 Y39.9432 
G01 X41.0585 Y39.6010 
G01 X41.1601 Y39.6010 
G01 X41.1972 Y39.5856 
G01 X41.2256 Y39.5572 
G01 X41.2410 Y39.5201 
G01 X41.2410 Y39.3685 
G01 X41.3090 Y39.3685 
G01 X41.3090 Y39.5201 
G01 X41.3244 Y39.5572 
G01 X41.3528 Y39.5856 
G01 X41.3899 Y39.6010 
G01 X42.4301 Y39.6010 
G01 X42.4672 Y39.5856 
G01 X42.4956 Y39.5572 
G01 X42.5110 Y39.5201 
G01 X42.5110 Y38.3799 
G01 X42.4956 Y38.3428 
G01 X42.4672 Y38.3144 
G01 X42.4301 Y38.2990 
G01 X41.3899 Y38.2990 
G01 X41.3528 Y38.3144 
G01 X41.3244 Y38.3428 
G01 X41.3090 Y38.3799 
G01 X41.3090 Y38.5315 
G01 X41.2410 Y38.5315 
G01 X41.2410 Y38.3799 
G01 X41.2256 Y38.3428 
G01 X41.1972 Y38.3144 
G01 X41.1601 Y38.2990 
G01 X40.1199 Y38.2990 
G01 X40.0828 Y38.3144 
G01 X40.0544 Y38.3428 
G01 X40.0390 Y38.3799 
G01 X40.0390 Y38.5315 
G01 X39.9710 Y38.5315 
G01 X39.9710 Y38.3799 
G01 X39.9556 Y38.3428 
G01 X39.9272 Y38.3144 
G01 X39.8901 Y38.2990 
G01 X38.8499 Y38.2990 
G01 X38.8128 Y38.3144 
G01 X38.7844 Y38.3428 
G00 Z0.5000 
G00 X38.7690 Y36.8990 
G01 Z-0.0800 F5.00  
G01 X38.7170 Y36.8990 F25.00 
G01 X38.7170 Y36.6799 
G01 X38.7274 Y36.6409 
G01 X38.7476 Y36.6061 
G01 X38.7760 Y36.5776 
G01 X38.8109 Y36.5574 
G01 X38.8499 Y36.5470 
G01 X39.0190 Y36.5470 
G01 X39.0190 Y36.5990 
G01 X38.8499 Y36.5990 
G01 X38.8128 Y36.6144 
G01 X38.7844 Y36.6428 
G01 X38.7690 Y36.6799 
G01 X38.7690 Y36.8990 
G00 Z0.5000 
G00 X38.2080 Y36.5615 
G01 Z-0.0800 F5.00  
G01 X38.1560 Y36.5615 F25.00 
G01 X38.1560 Y36.1799 
G01 X38.1406 Y36.1428 
G01 X38.1122 Y36.1144 
G01 X38.0751 Y36.0990 
G01 X38.0185 Y36.0990 
G01 X38.0185 Y36.0470 
G01 X38.0751 Y36.0470 
G01 X38.1140 Y36.0574 
G01 X38.1489 Y36.0776 
G01 X38.1774 Y36.1061 
G01 X38.1976 Y36.1409 
G01 X38.2080 Y36.1799 
G01 X38.2080 Y36.5615 
G00 Z0.5000 
G00 X37.4040 Y36.5615 
G01 Z-0.0800 F5.00  
G01 X37.3520 Y36.5615 F25.00 
G01 X37.3520 Y36.1799 
G01 X37.3624 Y36.1409 
G01 X37.3826 Y36.1061 
G01 X37.4111 Y36.0776 
G01 X37.4459 Y36.0574 
G01 X37.4849 Y36.0470 
G01 X37.5415 Y36.0470 
G01 X37.5415 Y36.0990 
G01 X37.4849 Y36.0990 
G01 X37.4478 Y36.1144 
G01 X37.4194 Y36.1428 
G01 X37.4040 Y36.1799 
G01 X37.4040 Y36.5615 
G00 Z0.5000 
G00 X37.3725 Y34.7027 
G01 Z-0.0800 F5.00  
G01 X37.4722 Y34.6360 F25.00 
G01 X37.5570 Y34.5512 
G01 X37.5629 Y34.5425 
G01 X37.8800 Y34.5425 
G01 X37.8800 Y34.6941 
G01 X37.8954 Y34.7312 
G01 X37.9238 Y34.7596 
G01 X37.9609 Y34.7750 
G01 X39.0011 Y34.7750 
G01 X39.0382 Y34.7596 
G01 X39.0666 Y34.7312 
G01 X39.0820 Y34.6941 
G01 X39.0820 Y33.5539 
G01 X39.0666 Y33.5168 
G01 X39.0382 Y33.4884 
G01 X39.0011 Y33.4730 
G01 X37.9609 Y33.4730 
G01 X37.9238 Y33.4884 
G01 X37.8954 Y33.5168 
G01 X37.8800 Y33.5539 
G01 X37.8800 Y33.7055 
G01 X37.4878 Y33.7055 
G01 X37.4722 Y33.6900 
G01 X37.3725 Y33.6233 
G01 X37.2616 Y33.5774 
G01 X37.1440 Y33.5540 
G01 X37.0240 Y33.5540 
G01 X36.9064 Y33.5774 
G01 X36.7955 Y33.6233 
G01 X36.6958 Y33.6900 
G01 X36.6110 Y33.7748 
G01 X36.5443 Y33.8745 
G01 X36.4984 Y33.9854 
G01 X36.4750 Y34.1030 
G01 X36.4750 Y34.2230 
G01 X36.4984 Y34.3406 
G01 X36.5443 Y34.4515 
G01 X36.6110 Y34.5512 
G01 X36.6958 Y34.6360 
G01 X36.7955 Y34.7027 
G01 X36.9064 Y34.7486 
G01 X37.0240 Y34.7720 
G01 X37.1440 Y34.7720 
G01 X37.2616 Y34.7486 
G01 X37.3725 Y34.7027 
G00 Z0.5000 
G00 X37.4584 Y34.7234 
G01 Z-0.0800 F5.00  
G01 X37.2155 Y34.8240 F25.00 
G01 X36.9525 Y34.8240 
G01 X36.7096 Y34.7234 
G01 X36.5236 Y34.5374 
G01 X36.5153 Y34.5173 
G01 X36.4894 Y34.4914 
G01 X36.4511 Y34.4531 
G01 X36.4139 Y34.4377 
G01 X36.3674 Y34.4184 
G01 X36.3217 Y34.4184 
G01 X36.2766 Y34.4184 
G01 X36.2392 Y34.4339 
G01 X36.1928 Y34.4531 
G01 X36.1670 Y34.4790 
G01 X36.1287 Y34.5173 
G01 X36.1204 Y34.5374 
G01 X35.9344 Y34.7234 
G01 X35.6915 Y34.8240 
G01 X35.4285 Y34.8240 
G01 X35.1856 Y34.7234 
G01 X34.9996 Y34.5374 
G01 X34.8990 Y34.2945 
G01 X34.8990 Y34.0315 
G01 X34.9996 Y33.7886 
G01 X35.1811 Y33.6071 
G01 X35.2453 Y33.5429 
G01 X35.2701 Y33.4830 
G01 X35.2800 Y33.4591 
G01 X35.2800 Y33.2892 
G01 X35.2453 Y33.2054 
G01 X35.1812 Y33.1412 
G01 X35.1533 Y33.1134 
G01 X35.0891 Y33.0492 
G01 X35.0537 Y33.0346 
G01 X35.0054 Y33.0145 
G01 X34.9146 Y33.0145 
G01 X34.8308 Y33.0492 
G01 X34.7388 Y33.1412 
G01 X34.6747 Y33.2054 
G01 X34.6400 Y33.2892 
G01 X34.6400 Y33.3900 
G01 X34.4760 Y33.5540 
G01 X34.2440 Y33.5540 
G01 X34.0800 Y33.3900 
G01 X34.0800 Y33.2892 
G01 X34.0453 Y33.2054 
G01 X33.9820 Y33.1421 
G01 X33.9820 Y31.3739 
G01 X34.0453 Y31.3106 
G01 X34.0800 Y31.2268 
G01 X34.0800 Y31.1129 
G01 X34.1054 Y31.0515 
G01 X34.1054 Y30.8125 
G01 X34.3115 Y30.6064 
G01 X34.6850 Y30.6064 
G01 X34.7687 Y30.5717 
G01 X34.8329 Y30.5075 
G01 X34.8676 Y30.4237 
G01 X34.8676 Y28.9942 
G01 X34.9572 Y28.9046 
G01 X36.4759 Y28.9046 
G01 X36.4847 Y28.9057 
G01 X36.4988 Y28.9116 
G01 X36.5293 Y28.9116 
G01 X36.5594 Y28.9156 
G01 X36.5742 Y28.9116 
G01 X36.5895 Y28.9116 
G01 X36.6065 Y28.9046 
G01 X36.6593 Y28.9046 
G01 X36.6593 Y28.9566 
G01 X36.6005 Y28.9566 
G01 X36.5634 Y28.9720 
G01 X36.5350 Y29.0004 
G01 X36.5196 Y29.0375 
G01 X36.5196 Y30.3477 
G01 X36.5350 Y30.3848 
G01 X36.5634 Y30.4132 
G01 X36.6005 Y30.4286 
G01 X37.1995 Y30.4286 
G01 X37.2366 Y30.4132 
G01 X37.2650 Y30.3848 
G01 X37.2804 Y30.3477 
G01 X37.2804 Y29.0375 
G01 X37.2650 Y29.0004 
G01 X37.2366 Y28.9720 
G01 X37.1995 Y28.9566 
G01 X37.1407 Y28.9566 
G01 X37.1407 Y28.9046 
G01 X37.1935 Y28.9046 
G01 X37.2105 Y28.9116 
G01 X37.2258 Y28.9116 
G01 X37.2405 Y28.9156 
G01 X37.2707 Y28.9116 
G01 X37.3012 Y28.9116 
G01 X37.3153 Y28.9057 
G01 X37.3240 Y28.9046 
G01 X38.0759 Y28.9046 
G01 X38.0847 Y28.9057 
G01 X38.0988 Y28.9116 
G01 X38.1293 Y28.9116 
G01 X38.1594 Y28.9156 
G01 X38.1742 Y28.9116 
G01 X38.1895 Y28.9116 
G01 X38.2065 Y28.9046 
G01 X38.2593 Y28.9046 
G01 X38.2593 Y28.9566 
G01 X38.2005 Y28.9566 
G01 X38.1634 Y28.9720 
G01 X38.1350 Y29.0004 
G01 X38.1196 Y29.0375 
G01 X38.1196 Y30.3477 
G01 X38.1350 Y30.3848 
G01 X38.1634 Y30.4132 
G01 X38.2005 Y30.4286 
G01 X38.2171 Y30.4286 
G01 X38.2085 Y30.4606 
G01 X38.2085 Y30.5374 
G01 X38.2284 Y30.6115 
G01 X38.2593 Y30.6651 
G01 X38.2593 Y30.6921 
G01 X38.2821 Y30.7471 
G01 X38.2847 Y30.7534 
G01 X38.3194 Y30.8373 
G01 X38.3800 Y30.9835 
G01 X38.3800 Y31.2465 
G01 X38.2794 Y31.4894 
G01 X38.2288 Y31.5399 
G01 X38.1647 Y31.6041 
G01 X38.1300 Y31.6879 
G01 X38.1300 Y31.7730 
G01 X37.9609 Y31.7730 
G01 X37.9238 Y31.7884 
G01 X37.8954 Y31.8168 
G01 X37.8800 Y31.8539 
G01 X37.8800 Y32.0730 
G01 X37.8280 Y32.0730 
G01 X37.8280 Y31.9586 
G01 X37.7933 Y31.8748 
G01 X37.7291 Y31.8107 
G01 X37.6454 Y31.7760 
G01 X37.5875 Y31.7760 
G01 X37.4951 Y31.7377 
G01 X37.4730 Y31.7286 
G01 X37.4113 Y31.7030 
G01 X37.3206 Y31.7030 
G01 X37.2368 Y31.7377 
G01 X37.1727 Y31.8019 
G01 X37.1717 Y31.8043 
G01 X37.1380 Y31.8857 
G01 X37.1380 Y33.1421 
G01 X37.1154 Y33.1647 
G01 X37.1090 Y33.1800 
G01 X37.0807 Y33.2485 
G01 X37.0807 Y33.3392 
G01 X37.0987 Y33.3827 
G01 X37.1154 Y33.4230 
G01 X37.1795 Y33.4871 
G01 X37.2018 Y33.4963 
G01 X37.2633 Y33.5218 
G01 X37.4584 Y33.6026 
G01 X37.4708 Y33.6150 
G01 X37.5177 Y33.6344 
G01 X37.5546 Y33.6498 
G01 X37.6002 Y33.6498 
G01 X37.6453 Y33.6498 
G01 X37.6880 Y33.6321 
G01 X37.7291 Y33.6151 
G01 X37.7678 Y33.5764 
G01 X37.7933 Y33.5509 
G01 X37.7972 Y33.5414 
G01 X37.8713 Y33.4673 
G01 X37.8965 Y33.4421 
G01 X37.9355 Y33.4031 
G01 X37.9523 Y33.3625 
G01 X37.9702 Y33.3194 
G01 X37.9702 Y33.2286 
G01 X37.9410 Y33.1582 
G01 X37.9355 Y33.1448 
G01 X37.9027 Y33.1120 
G01 X37.8713 Y33.0807 
G01 X37.8586 Y33.0679 
G01 X37.8384 Y33.0330 
G01 X37.8280 Y32.9941 
G01 X37.8280 Y32.7750 
G01 X37.8800 Y32.7750 
G01 X37.8800 Y32.9941 
G01 X37.8954 Y33.0312 
G01 X37.9238 Y33.0596 
G01 X37.9609 Y33.0750 
G01 X39.0011 Y33.0750 
G01 X39.0382 Y33.0596 
G01 X39.0666 Y33.0312 
G01 X39.0820 Y32.9941 
G01 X39.0820 Y32.7750 
G01 X39.1340 Y32.7750 
G01 X39.1340 Y32.9941 
G01 X39.1236 Y33.0330 
G01 X39.1034 Y33.0679 
G01 X39.0907 Y33.0807 
G01 X39.0583 Y33.1130 
G01 X39.0265 Y33.1448 
G01 X39.0202 Y33.1602 
G01 X38.9918 Y33.2286 
G01 X38.9918 Y33.3194 
G01 X39.0102 Y33.3637 
G01 X39.0265 Y33.4031 
G01 X39.0667 Y33.4433 
G01 X39.0907 Y33.4673 
G01 X39.1340 Y33.5106 
G01 X39.1340 Y34.7374 
G01 X39.0444 Y34.8270 
G01 X37.9176 Y34.8270 
G01 X37.8295 Y34.7389 
G01 X37.7654 Y34.6747 
G01 X37.7500 Y34.6684 
G01 X37.6816 Y34.6400 
G01 X37.5908 Y34.6400 
G01 X37.5473 Y34.6581 
G01 X37.5071 Y34.6747 
G01 X37.4584 Y34.7234 
G00 Z0.5000 
G00 X36.0330 Y34.5512 
G01 Z-0.0800 F5.00  
G01 X36.0997 Y34.4515 F25.00 
G01 X36.1456 Y34.3406 
G01 X36.1690 Y34.2230 
G01 X36.1690 Y34.1030 
G01 X36.1456 Y33.9854 
G01 X36.0997 Y33.8745 
G01 X36.0330 Y33.7748 
G01 X35.9482 Y33.6900 
G01 X35.8485 Y33.6233 
G01 X35.7880 Y33.5983 
G01 X35.7880 Y33.2185 
G01 X35.8209 Y33.1857 
G01 X35.8638 Y33.1113 
G01 X35.8860 Y33.0284 
G01 X35.8860 Y31.4876 
G01 X35.8638 Y31.4047 
G01 X35.8209 Y31.3303 
G01 X35.7880 Y31.2975 
G01 X35.7880 Y31.1966 
G01 X35.7533 Y31.1128 
G01 X35.6891 Y31.0487 
G01 X35.6054 Y31.0140 
G01 X35.5146 Y31.0140 
G01 X35.4308 Y31.0487 
G01 X35.3667 Y31.1128 
G01 X35.3320 Y31.1966 
G01 X35.3320 Y31.2975 
G01 X35.2991 Y31.3303 
G01 X35.2562 Y31.4047 
G01 X35.2340 Y31.4876 
G01 X35.2340 Y33.0284 
G01 X35.2562 Y33.1113 
G01 X35.2991 Y33.1857 
G01 X35.3320 Y33.2185 
G01 X35.3320 Y33.5983 
G01 X35.2715 Y33.6233 
G01 X35.1718 Y33.6900 
G01 X35.0870 Y33.7748 
G01 X35.0203 Y33.8745 
G01 X34.9744 Y33.9854 
G01 X34.9510 Y34.1030 
G01 X34.9510 Y34.2230 
G01 X34.9744 Y34.3406 
G01 X35.0203 Y34.4515 
G01 X35.0870 Y34.5512 
G01 X35.1718 Y34.6360 
G01 X35.2715 Y34.7027 
G01 X35.3824 Y34.7486 
G01 X35.5000 Y34.7720 
G01 X35.6200 Y34.7720 
G01 X35.7376 Y34.7486 
G01 X35.8485 Y34.7027 
G01 X35.9482 Y34.6360 
G01 X36.0330 Y34.5512 
G00 Z0.5000 
G00 X36.6308 Y33.4673 
G01 Z-0.0800 F5.00  
G01 X36.7146 Y33.5020 F25.00 
G01 X36.8053 Y33.5020 
G01 X36.8892 Y33.4673 
G01 X36.9533 Y33.4031 
G01 X36.9880 Y33.3194 
G01 X36.9880 Y33.2185 
G01 X37.0209 Y33.1857 
G01 X37.0638 Y33.1113 
G01 X37.0860 Y33.0284 
G01 X37.0860 Y31.4876 
G01 X37.0638 Y31.4047 
G01 X37.0209 Y31.3303 
G01 X36.9880 Y31.2975 
G01 X36.9880 Y31.1966 
G01 X36.9626 Y31.1353 
G01 X36.9626 Y30.8777 
G01 X36.9318 Y30.8032 
G01 X36.8748 Y30.7462 
G01 X36.8178 Y30.6892 
G01 X36.7433 Y30.6584 
G01 X36.2789 Y30.6584 
G01 X36.2706 Y30.6501 
G01 X36.2706 Y30.4286 
G01 X36.3995 Y30.4286 
G01 X36.4366 Y30.4132 
G01 X36.4650 Y30.3848 
G01 X36.4804 Y30.3477 
G01 X36.4804 Y29.0375 
G01 X36.4650 Y29.0004 
G01 X36.4366 Y28.9720 
G01 X36.3995 Y28.9566 
G01 X35.8005 Y28.9566 
G01 X35.7634 Y28.9720 
G01 X35.7350 Y29.0004 
G01 X35.7196 Y29.0375 
G01 X35.7196 Y30.3477 
G01 X35.7350 Y30.3848 
G01 X35.7634 Y30.4132 
G01 X35.8005 Y30.4286 
G01 X35.8654 Y30.4286 
G01 X35.8654 Y30.7743 
G01 X35.8962 Y30.8488 
G01 X35.9532 Y30.9058 
G01 X36.0802 Y31.0328 
G01 X36.1547 Y31.0636 
G01 X36.5574 Y31.0636 
G01 X36.5574 Y31.1353 
G01 X36.5320 Y31.1966 
G01 X36.5320 Y31.2975 
G01 X36.4991 Y31.3303 
G01 X36.4562 Y31.4047 
G01 X36.4340 Y31.4876 
G01 X36.4340 Y33.0284 
G01 X36.4562 Y33.1113 
G01 X36.4991 Y33.1857 
G01 X36.5320 Y33.2185 
G01 X36.5320 Y33.3194 
G01 X36.5667 Y33.4031 
G01 X36.6308 Y33.4673 
G00 Z0.5000 
G00 X34.5533 Y33.4031 
G01 Z-0.0800 F5.00  
G01 X34.5880 Y33.3194 F25.00 
G01 X34.5880 Y33.2185 
G01 X34.6209 Y33.1857 
G01 X34.6638 Y33.1113 
G01 X34.6860 Y33.0284 
G01 X34.6860 Y31.4876 
G01 X34.6638 Y31.4047 
G01 X34.6209 Y31.3303 
G01 X34.5880 Y31.2975 
G01 X34.5880 Y31.1966 
G01 X34.5626 Y31.1353 
G01 X34.5626 Y31.0636 
G01 X35.2193 Y31.0636 
G01 X35.2938 Y31.0328 
G01 X35.4208 Y30.9058 
G01 X35.4778 Y30.8488 
G01 X35.5086 Y30.7743 
G01 X35.5086 Y30.4286 
G01 X35.5995 Y30.4286 
G01 X35.6366 Y30.4132 
G01 X35.6650 Y30.3848 
G01 X35.6804 Y30.3477 
G01 X35.6804 Y29.0375 
G01 X35.6650 Y29.0004 
G01 X35.6366 Y28.9720 
G01 X35.5995 Y28.9566 
G01 X35.0005 Y28.9566 
G01 X34.9634 Y28.9720 
G01 X34.9350 Y29.0004 
G01 X34.9196 Y29.0375 
G01 X34.9196 Y30.3477 
G01 X34.9350 Y30.3848 
G01 X34.9634 Y30.4132 
G01 X35.0005 Y30.4286 
G01 X35.1034 Y30.4286 
G01 X35.1034 Y30.6501 
G01 X35.0951 Y30.6584 
G01 X34.3767 Y30.6584 
G01 X34.3022 Y30.6892 
G01 X34.2452 Y30.7462 
G01 X34.1882 Y30.8032 
G01 X34.1574 Y30.8777 
G01 X34.1574 Y31.1353 
G01 X34.1320 Y31.1966 
G01 X34.1320 Y31.2975 
G01 X34.0991 Y31.3303 
G01 X34.0562 Y31.4047 
G01 X34.0340 Y31.4876 
G01 X34.0340 Y33.0284 
G01 X34.0562 Y33.1113 
G01 X34.0991 Y33.1857 
G01 X34.1320 Y33.2185 
G01 X34.1320 Y33.3194 
G01 X34.1667 Y33.4031 
G01 X34.2308 Y33.4673 
G01 X34.3146 Y33.5020 
G01 X34.4053 Y33.5020 
G01 X34.4892 Y33.4673 
G01 X34.5533 Y33.4031 
G00 Z0.5000 
G00 X37.3308 Y31.5880 
G01 Z-0.0800 F5.00  
G01 X37.4305 Y31.6547 F25.00 
G01 X37.5414 Y31.7006 
G01 X37.6590 Y31.7240 
G01 X37.7790 Y31.7240 
G01 X37.8966 Y31.7006 
G01 X38.0075 Y31.6547 
G01 X38.1072 Y31.5880 
G01 X38.1920 Y31.5032 
G01 X38.2587 Y31.4035 
G01 X38.3046 Y31.2926 
G01 X38.3280 Y31.1750 
G01 X38.3280 Y31.0550 
G01 X38.3046 Y30.9374 
G01 X38.2587 Y30.8265 
G01 X38.1920 Y30.7268 
G01 X38.1072 Y30.6420 
G01 X38.0105 Y30.5773 
G01 X38.0105 Y30.4240 
G01 X38.0366 Y30.4132 
G01 X38.0650 Y30.3848 
G01 X38.0804 Y30.3477 
G01 X38.0804 Y29.0375 
G01 X38.0650 Y29.0004 
G01 X38.0366 Y28.9720 
G01 X37.9995 Y28.9566 
G01 X37.4005 Y28.9566 
G01 X37.3634 Y28.9720 
G01 X37.3350 Y29.0004 
G01 X37.3196 Y29.0375 
G01 X37.3196 Y30.3477 
G01 X37.3350 Y30.3848 
G01 X37.3634 Y30.4132 
G01 X37.4005 Y30.4286 
G01 X37.4275 Y30.4286 
G01 X37.4275 Y30.5773 
G01 X37.3308 Y30.6420 
G01 X37.2460 Y30.7268 
G01 X37.1793 Y30.8265 
G01 X37.1334 Y30.9374 
G01 X37.1100 Y31.0550 
G01 X37.1100 Y31.1750 
G01 X37.1334 Y31.2926 
G01 X37.1793 Y31.4035 
G01 X37.2460 Y31.5032 
G01 X37.3308 Y31.5880 
G00 Z0.5000 
G00 X38.9114 Y31.5466 
G01 Z-0.0800 F5.00  
G01 X38.9573 Y31.6575 F25.00 
G01 X39.0240 Y31.7572 
G01 X39.1088 Y31.8420 
G01 X39.2085 Y31.9087 
G01 X39.3194 Y31.9546 
G01 X39.4370 Y31.9780 
G01 X39.5570 Y31.9780 
G01 X39.6746 Y31.9546 
G01 X39.7855 Y31.9087 
G01 X39.8852 Y31.8420 
G01 X39.9700 Y31.7572 
G01 X40.0367 Y31.6575 
G01 X40.0826 Y31.5466 
G01 X40.1060 Y31.4290 
G01 X40.1060 Y31.3090 
G01 X40.0826 Y31.1914 
G01 X40.0367 Y31.0805 
G01 X39.9700 Y30.9808 
G01 X39.8852 Y30.8960 
G01 X39.7885 Y30.8313 
G01 X39.7885 Y30.5686 
G01 X39.7686 Y30.4945 
G01 X39.7303 Y30.4280 
G01 X39.6760 Y30.3737 
G01 X39.6715 Y30.3692 
G01 X39.6804 Y30.3477 
G01 X39.6804 Y29.0375 
G01 X39.6650 Y29.0004 
G01 X39.6366 Y28.9720 
G01 X39.5995 Y28.9566 
G01 X39.0005 Y28.9566 
G01 X38.9634 Y28.9720 
G01 X38.9350 Y29.0004 
G01 X38.9196 Y29.0375 
G01 X38.9196 Y30.3477 
G01 X38.9350 Y30.3848 
G01 X38.9634 Y30.4132 
G01 X39.0005 Y30.4286 
G01 X39.0785 Y30.4286 
G01 X39.0785 Y30.5184 
G01 X39.0984 Y30.5925 
G01 X39.1367 Y30.6590 
G01 X39.2055 Y30.7277 
G01 X39.2055 Y30.8313 
G01 X39.1088 Y30.8960 
G01 X39.0240 Y30.9808 
G01 X38.9573 Y31.0805 
G01 X38.9114 Y31.1914 
G01 X38.8880 Y31.3090 
G01 X38.8880 Y31.4290 
G01 X38.9114 Y31.5466 
G00 Z0.5000 
G00 X40.0872 Y31.1028 
G01 Z-0.0800 F5.00  
G01 X43.9542 Y34.9698 F25.00 
G01 X44.0287 Y35.0006 
G01 X45.2551 Y35.0006 
G01 X45.5174 Y35.2629 
G01 X45.5174 Y35.9670 
G01 X45.2936 Y35.9670 
G01 X45.2098 Y36.0017 
G01 X45.1457 Y36.0658 
G01 X45.1110 Y36.1496 
G01 X45.1110 Y40.0504 
G01 X45.1457 Y40.1341 
G01 X45.2098 Y40.1983 
G01 X45.2936 Y40.2330 
G01 X46.1463 Y40.2330 
G01 X46.2302 Y40.1983 
G01 X46.2943 Y40.1341 
G01 X46.3290 Y40.0504 
G01 X46.3290 Y36.1496 
G01 X46.2943 Y36.0658 
G01 X46.2302 Y36.0017 
G01 X46.1463 Y35.9670 
G01 X45.9226 Y35.9670 
G01 X45.9226 Y35.1387 
G01 X45.8918 Y35.0642 
G01 X45.8348 Y35.0072 
G01 X45.4538 Y34.6262 
G01 X45.3793 Y34.5954 
G01 X44.1529 Y34.5954 
G01 X40.4616 Y30.9041 
G01 X40.4616 Y30.3882 
G01 X40.4650 Y30.3848 
G01 X40.4804 Y30.3477 
G01 X40.4804 Y29.0375 
G01 X40.4650 Y29.0004 
G01 X40.4366 Y28.9720 
G01 X40.3995 Y28.9566 
G01 X39.8005 Y28.9566 
G01 X39.7634 Y28.9720 
G01 X39.7350 Y29.0004 
G01 X39.7196 Y29.0375 
G01 X39.7196 Y30.3477 
G01 X39.7350 Y30.3848 
G01 X39.7634 Y30.4132 
G01 X39.8005 Y30.4286 
G01 X40.0564 Y30.4286 
G01 X40.0564 Y31.0283 
G01 X40.0872 Y31.1028 
G00 Z0.5000 
G00 X40.7282 Y30.8548 
G01 Z-0.0800 F5.00  
G01 X44.0242 Y34.1508 F25.00 
G01 X44.0812 Y34.2078 
G01 X44.1557 Y34.2386 
G01 X47.6681 Y34.2386 
G01 X48.0574 Y34.6279 
G01 X48.0574 Y35.9670 
G01 X47.8336 Y35.9670 
G01 X47.7498 Y36.0017 
G01 X47.6857 Y36.0658 
G01 X47.6510 Y36.1496 
G01 X47.6510 Y40.0504 
G01 X47.6857 Y40.1341 
G01 X47.7498 Y40.1983 
G01 X47.8336 Y40.2330 
G01 X48.6863 Y40.2330 
G01 X48.7702 Y40.1983 
G01 X48.8343 Y40.1341 
G01 X48.8690 Y40.0504 
G01 X48.8690 Y36.1496 
G01 X48.8343 Y36.0658 
G01 X48.7702 Y36.0017 
G01 X48.6863 Y35.9670 
G01 X48.4626 Y35.9670 
G01 X48.4626 Y34.5037 
G01 X48.4318 Y34.4292 
G01 X48.3748 Y34.3722 
G01 X47.8668 Y33.8642 
G01 X47.7923 Y33.8334 
G01 X44.2799 Y33.8334 
G01 X41.1026 Y30.6561 
G01 X41.1026 Y30.4286 
G01 X41.1995 Y30.4286 
G01 X41.2366 Y30.4132 
G01 X41.2650 Y30.3848 
G01 X41.2804 Y30.3477 
G01 X41.2804 Y29.0375 
G01 X41.2650 Y29.0004 
G01 X41.2366 Y28.9720 
G01 X41.1995 Y28.9566 
G01 X40.6005 Y28.9566 
G01 X40.5634 Y28.9720 
G01 X40.5350 Y29.0004 
G01 X40.5196 Y29.0375 
G01 X40.5196 Y30.3477 
G01 X40.5350 Y30.3848 
G01 X40.5634 Y30.4132 
G01 X40.6005 Y30.4286 
G01 X40.6974 Y30.4286 
G01 X40.6974 Y30.7803 
G01 X40.7282 Y30.8548 
G00 Z0.5000 
G00 X41.6112 Y30.5948 
G01 Z-0.0800 F5.00  
G01 X44.6592 Y33.6428 F25.00 
G01 X44.7162 Y33.6998 
G01 X44.7907 Y33.7306 
G01 X48.9381 Y33.7306 
G01 X49.3274 Y34.1199 
G01 X49.3274 Y43.4743 
G01 X49.3582 Y43.5488 
G01 X50.5974 Y44.7879 
G01 X50.5974 Y46.1270 
G01 X50.3736 Y46.1270 
G01 X50.2898 Y46.1617 
G01 X50.2257 Y46.2258 
G01 X50.1910 Y46.3096 
G01 X50.1910 Y50.2103 
G01 X50.2257 Y50.2942 
G01 X50.2898 Y50.3583 
G01 X50.3736 Y50.3930 
G01 X51.2263 Y50.3930 
G01 X51.3102 Y50.3583 
G01 X51.3743 Y50.2942 
G01 X51.4090 Y50.2103 
G01 X51.4090 Y46.3096 
G01 X51.3743 Y46.2258 
G01 X51.3102 Y46.1617 
G01 X51.2263 Y46.1270 
G01 X51.0026 Y46.1270 
G01 X51.0026 Y44.6637 
G01 X50.9718 Y44.5892 
G01 X50.9148 Y44.5322 
G01 X49.7326 Y43.3501 
G01 X49.7326 Y33.9957 
G01 X49.7018 Y33.9212 
G01 X49.6448 Y33.8642 
G01 X49.1938 Y33.4132 
G01 X49.1368 Y33.3562 
G01 X49.0623 Y33.3254 
G01 X44.9149 Y33.3254 
G01 X41.9856 Y30.3961 
G01 X41.9856 Y29.0427 
G01 X41.9548 Y28.9682 
G01 X41.8978 Y28.9112 
G01 X41.2236 Y28.2371 
G01 X41.2236 Y27.1349 
G01 X41.5559 Y26.8026 
G01 X41.6566 Y26.8026 
G01 X41.6566 Y26.8995 
G01 X41.6720 Y26.9366 
G01 X41.7004 Y26.9650 
G01 X41.7375 Y26.9804 
G01 X43.0477 Y26.9804 
G01 X43.0848 Y26.9650 
G01 X43.1132 Y26.9366 
G01 X43.1286 Y26.8995 
G01 X43.1286 Y26.3005 
G01 X43.1132 Y26.2634 
G01 X43.0848 Y26.2350 
G01 X43.0477 Y26.2196 
G01 X41.7375 Y26.2196 
G01 X41.7004 Y26.2350 
G01 X41.6720 Y26.2634 
G01 X41.6566 Y26.3005 
G01 X41.6566 Y26.3974 
G01 X41.4317 Y26.3974 
G01 X41.3572 Y26.4282 
G01 X40.9062 Y26.8792 
G01 X40.8492 Y26.9362 
G01 X40.8184 Y27.0107 
G01 X40.8184 Y28.3613 
G01 X40.8492 Y28.4358 
G01 X41.5804 Y29.1669 
G01 X41.5804 Y30.5203 
G01 X41.6112 Y30.5948 
G00 Z0.5000 
G00 X42.2208 Y29.6804 
G01 Z-0.0800 F5.00  
G01 X45.4212 Y32.8808 F25.00 
G01 X45.4782 Y32.9378 
G01 X45.5527 Y32.9686 
G01 X49.8271 Y32.9686 
G01 X50.5974 Y33.7389 
G01 X50.5974 Y35.9670 
G01 X50.3736 Y35.9670 
G01 X50.2898 Y36.0017 
G01 X50.2257 Y36.0658 
G01 X50.1910 Y36.1496 
G01 X50.1910 Y40.0504 
G01 X50.2257 Y40.1341 
G01 X50.2898 Y40.1983 
G01 X50.3736 Y40.2330 
G01 X51.2263 Y40.2330 
G01 X51.3102 Y40.1983 
G01 X51.3743 Y40.1341 
G01 X51.4090 Y40.0504 
G01 X51.4090 Y36.1496 
G01 X51.3743 Y36.0658 
G01 X51.3102 Y36.0017 
G01 X51.2263 Y35.9670 
G01 X51.0026 Y35.9670 
G01 X51.0026 Y33.6147 
G01 X50.9718 Y33.5402 
G01 X50.9148 Y33.4832 
G01 X50.0258 Y32.5942 
G01 X49.9513 Y32.5634 
G01 X45.6769 Y32.5634 
G01 X42.5952 Y29.4817 
G01 X42.5952 Y28.5804 
G01 X43.0477 Y28.5804 
G01 X43.0848 Y28.5650 
G01 X43.1132 Y28.5366 
G01 X43.1286 Y28.4995 
G01 X43.1286 Y27.9005 
G01 X43.1132 Y27.8634 
G01 X43.0848 Y27.8350 
G01 X43.0477 Y27.8196 
G01 X41.7375 Y27.8196 
G01 X41.7004 Y27.8350 
G01 X41.6720 Y27.8634 
G01 X41.6566 Y27.9005 
G01 X41.6566 Y28.4995 
G01 X41.6720 Y28.5366 
G01 X41.7004 Y28.5650 
G01 X41.7375 Y28.5804 
G01 X42.1900 Y28.5804 
G01 X42.1900 Y29.6059 
G01 X42.2208 Y29.6804 
G00 Z0.5000 
G00 X41.7375 Y27.7804 
G01 Z-0.0800 F5.00  
G01 X43.0477 Y27.7804 F25.00 
G01 X43.0848 Y27.7650 
G01 X43.1132 Y27.7366 
G01 X43.1286 Y27.6995 
G01 X43.1286 Y27.6026 
G01 X43.6991 Y27.6026 
G01 X44.2474 Y28.1509 
G01 X44.2474 Y30.1393 
G01 X44.2782 Y30.2138 
G01 X46.0562 Y31.9918 
G01 X46.1132 Y32.0488 
G01 X46.1877 Y32.0796 
G01 X52.2401 Y32.0796 
G01 X53.1374 Y32.9769 
G01 X53.1374 Y46.1270 
G01 X52.9136 Y46.1270 
G01 X52.8298 Y46.1617 
G01 X52.7657 Y46.2258 
G01 X52.7310 Y46.3096 
G01 X52.7310 Y50.2103 
G01 X52.7657 Y50.2942 
G01 X52.8298 Y50.3583 
G01 X52.9136 Y50.3930 
G01 X53.7664 Y50.3930 
G01 X53.8501 Y50.3583 
G01 X53.9143 Y50.2942 
G01 X53.9490 Y50.2103 
G01 X53.9490 Y46.3096 
G01 X53.9143 Y46.2258 
G01 X53.8501 Y46.1617 
G01 X53.7664 Y46.1270 
G01 X53.5426 Y46.1270 
G01 X53.5426 Y32.8527 
G01 X53.5118 Y32.7782 
G01 X53.4548 Y32.7212 
G01 X52.4388 Y31.7052 
G01 X52.3643 Y31.6744 
G01 X46.3119 Y31.6744 
G01 X44.6526 Y30.0151 
G01 X44.6526 Y28.0267 
G01 X44.6218 Y27.9522 
G01 X44.5648 Y27.8952 
G01 X43.8978 Y27.2282 
G01 X43.8233 Y27.1974 
G01 X43.1286 Y27.1974 
G01 X43.1286 Y27.1005 
G01 X43.1132 Y27.0634 
G01 X43.0848 Y27.0350 
G01 X43.0477 Y27.0196 
G01 X41.7375 Y27.0196 
G01 X41.7004 Y27.0350 
G01 X41.6720 Y27.0634 
G01 X41.6566 Y27.1005 
G01 X41.6566 Y27.6995 
G01 X41.6720 Y27.7366 
G01 X41.7004 Y27.7650 
G01 X41.7375 Y27.7804 
G00 Z0.5000 
G00 X41.7375 Y26.1804 
G01 Z-0.0800 F5.00  
G01 X43.0477 Y26.1804 F25.00 
G01 X43.0848 Y26.1650 
G01 X43.1132 Y26.1366 
G01 X43.1286 Y26.0995 
G01 X43.1286 Y26.0026 
G01 X49.0841 Y26.0026 
G01 X49.3274 Y26.2459 
G01 X49.3274 Y26.3484 
G01 X48.8973 Y26.3484 
G01 X48.8602 Y26.3638 
G01 X48.8318 Y26.3922 
G01 X48.8164 Y26.4293 
G01 X48.8164 Y27.4695 
G01 X48.8318 Y27.5066 
G01 X48.8602 Y27.5350 
G01 X48.8973 Y27.5504 
G01 X49.2648 Y27.5504 
G01 X49.2648 Y27.8470 
G01 X48.8973 Y27.8470 
G01 X48.8602 Y27.8624 
G01 X48.8318 Y27.8908 
G01 X48.8164 Y27.9279 
G01 X48.8164 Y28.9681 
G01 X48.8318 Y29.0052 
G01 X48.8602 Y29.0336 
G01 X48.8973 Y29.0490 
G01 X49.2648 Y29.0490 
G01 X49.2648 Y30.0767 
G01 X49.2956 Y30.1512 
G01 X49.8662 Y30.7218 
G01 X49.9232 Y30.7788 
G01 X49.9977 Y30.8096 
G01 X51.4910 Y30.8096 
G01 X51.4910 Y31.4771 
G01 X51.5064 Y31.5142 
G01 X51.5348 Y31.5426 
G01 X51.5719 Y31.5580 
G01 X52.4121 Y31.5580 
G01 X52.4492 Y31.5426 
G01 X52.4776 Y31.5142 
G01 X52.4930 Y31.4771 
G01 X52.4930 Y30.6826 
G01 X53.7470 Y30.6826 
G01 X53.7470 Y30.9063 
G01 X53.7817 Y30.9901 
G01 X53.8458 Y31.0543 
G01 X53.9296 Y31.0890 
G01 X57.8304 Y31.0890 
G01 X57.9141 Y31.0543 
G01 X57.9783 Y30.9901 
G01 X58.0130 Y30.9063 
G01 X58.0130 Y30.0536 
G01 X57.9783 Y29.9698 
G01 X57.9141 Y29.9057 
G01 X57.8304 Y29.8710 
G01 X53.9296 Y29.8710 
G01 X53.8458 Y29.9057 
G01 X53.7817 Y29.9698 
G01 X53.7470 Y30.0536 
G01 X53.7470 Y30.2774 
G01 X52.4930 Y30.2774 
G01 X52.4930 Y29.7369 
G01 X52.4776 Y29.6998 
G01 X52.4492 Y29.6714 
G01 X52.4121 Y29.6560 
G01 X51.5719 Y29.6560 
G01 X51.5348 Y29.6714 
G01 X51.5064 Y29.6998 
G01 X51.4910 Y29.7369 
G01 X51.4910 Y30.4044 
G01 X50.1219 Y30.4044 
G01 X49.6700 Y29.9525 
G01 X49.6700 Y29.0490 
G01 X50.0375 Y29.0490 
G01 X50.0746 Y29.0336 
G01 X50.1030 Y29.0052 
G01 X50.1184 Y28.9681 
G01 X50.1184 Y27.9279 
G01 X50.1030 Y27.8908 
G01 X50.0746 Y27.8624 
G01 X50.0375 Y27.8470 
G01 X49.6700 Y27.8470 
G01 X49.6700 Y27.5504 
G01 X50.0375 Y27.5504 
G01 X50.0746 Y27.5350 
G01 X50.1030 Y27.5066 
G01 X50.1184 Y27.4695 
G01 X50.1184 Y26.4293 
G01 X50.1030 Y26.3922 
G01 X50.0746 Y26.3638 
G01 X50.0375 Y26.3484 
G01 X49.7326 Y26.3484 
G01 X49.7326 Y26.1217 
G01 X49.7018 Y26.0472 
G01 X49.6448 Y25.9902 
G01 X49.2828 Y25.6282 
G01 X49.2083 Y25.5974 
G01 X43.1286 Y25.5974 
G01 X43.1286 Y25.5005 
G01 X43.1132 Y25.4634 
G01 X43.0848 Y25.4350 
G01 X43.0477 Y25.4196 
G01 X41.7375 Y25.4196 
G01 X41.7004 Y25.4350 
G01 X41.6720 Y25.4634 
G01 X41.6566 Y25.5005 
G01 X41.6566 Y26.0995 
G01 X41.6720 Y26.1366 
G01 X41.7004 Y26.1650 
G01 X41.7375 Y26.1804 
G00 Z0.5000 
G00 X41.7375 Y25.3804 
G01 Z-0.0800 F5.00  
G01 X43.0477 Y25.3804 F25.00 
G01 X43.0848 Y25.3650 
G01 X43.1132 Y25.3366 
G01 X43.1286 Y25.2995 
G01 X43.1286 Y25.2026 
G01 X52.4751 Y25.2026 
G01 X53.6762 Y26.4038 
G01 X53.7332 Y26.4608 
G01 X53.8077 Y26.4916 
G01 X54.3790 Y26.4916 
G01 X54.3790 Y26.8091 
G01 X54.3944 Y26.8462 
G01 X54.4228 Y26.8746 
G01 X54.4599 Y26.8900 
G01 X54.8274 Y26.8900 
G01 X54.8274 Y27.3310 
G01 X53.9296 Y27.3310 
G01 X53.8458 Y27.3657 
G01 X53.7817 Y27.4298 
G01 X53.7470 Y27.5136 
G01 X53.7470 Y28.3664 
G01 X53.7817 Y28.4502 
G01 X53.8458 Y28.5143 
G01 X53.9296 Y28.5490 
G01 X57.8304 Y28.5490 
G01 X57.9141 Y28.5143 
G01 X57.9783 Y28.4502 
G01 X58.0130 Y28.3664 
G01 X58.0130 Y27.5136 
G01 X57.9783 Y27.4298 
G01 X57.9141 Y27.3657 
G01 X57.8304 Y27.3310 
G01 X55.2326 Y27.3310 
G01 X55.2326 Y26.8900 
G01 X55.6001 Y26.8900 
G01 X55.6372 Y26.8746 
G01 X55.6656 Y26.8462 
G01 X55.6810 Y26.8091 
G01 X55.6810 Y25.7689 
G01 X55.6656 Y25.7318 
G01 X55.6372 Y25.7034 
G01 X55.6001 Y25.6880 
G01 X54.4599 Y25.6880 
G01 X54.4228 Y25.7034 
G01 X54.3944 Y25.7318 
G01 X54.3790 Y25.7689 
G01 X54.3790 Y26.0864 
G01 X53.9319 Y26.0864 
G01 X52.6738 Y24.8282 
G01 X52.5993 Y24.7974 
G01 X43.1286 Y24.7974 
G01 X43.1286 Y24.7005 
G01 X43.1132 Y24.6634 
G01 X43.0848 Y24.6350 
G01 X43.0477 Y24.6196 
G01 X41.7375 Y24.6196 
G01 X41.7004 Y24.6350 
G01 X41.6720 Y24.6634 
G01 X41.6566 Y24.7005 
G01 X41.6566 Y25.2995 
G01 X41.6720 Y25.3366 
G01 X41.7004 Y25.3650 
G01 X41.7375 Y25.3804 
G00 Z0.5000 
G00 X41.7375 Y24.5804 
G01 Z-0.0800 F5.00  
G01 X43.0477 Y24.5804 F25.00 
G01 X43.0848 Y24.5650 
G01 X43.1132 Y24.5366 
G01 X43.1286 Y24.4995 
G01 X43.1286 Y24.4026 
G01 X54.3790 Y24.4026 
G01 X54.3790 Y24.9041 
G01 X54.3944 Y24.9412 
G01 X54.4228 Y24.9696 
G01 X54.4599 Y24.9850 
G01 X55.6001 Y24.9850 
G01 X55.6372 Y24.9696 
G01 X55.6656 Y24.9412 
G01 X55.6810 Y24.9041 
G01 X55.6810 Y23.8639 
G01 X55.6656 Y23.8268 
G01 X55.6372 Y23.7984 
G01 X55.6001 Y23.7830 
G01 X55.2326 Y23.7830 
G01 X55.2326 Y23.4690 
G01 X57.8304 Y23.4690 
G01 X57.9141 Y23.4343 
G01 X57.9783 Y23.3701 
G01 X58.0130 Y23.2863 
G01 X58.0130 Y22.4336 
G01 X57.9783 Y22.3498 
G01 X57.9141 Y22.2857 
G01 X57.8304 Y22.2510 
G01 X53.9296 Y22.2510 
G01 X53.8458 Y22.2857 
G01 X53.7817 Y22.3498 
G01 X53.7470 Y22.4336 
G01 X53.7470 Y23.2863 
G01 X53.7817 Y23.3701 
G01 X53.8458 Y23.4343 
G01 X53.9296 Y23.4690 
G01 X54.8274 Y23.4690 
G01 X54.8274 Y23.7830 
G01 X54.4599 Y23.7830 
G01 X54.4228 Y23.7984 
G01 X54.3944 Y23.8268 
G01 X54.3790 Y23.8639 
G01 X54.3790 Y23.9974 
G01 X43.1286 Y23.9974 
G01 X43.1286 Y23.9005 
G01 X43.1132 Y23.8634 
G01 X43.0848 Y23.8350 
G01 X43.0477 Y23.8196 
G01 X41.7375 Y23.8196 
G01 X41.7004 Y23.8350 
G01 X41.6720 Y23.8634 
G01 X41.6566 Y23.9005 
G01 X41.6566 Y24.4995 
G01 X41.6720 Y24.5366 
G01 X41.7004 Y24.5650 
G01 X41.7375 Y24.5804 
G00 Z0.5000 
G00 X41.7375 Y23.7804 
G01 Z-0.0800 F5.00  
G01 X43.0477 Y23.7804 F25.00 
G01 X43.0848 Y23.7650 
G01 X43.1132 Y23.7366 
G01 X43.1286 Y23.6995 
G01 X43.1286 Y23.6026 
G01 X43.4423 Y23.6026 
G01 X43.5168 Y23.5718 
G01 X46.5659 Y20.5226 
G01 X53.7470 Y20.5226 
G01 X53.7470 Y20.7463 
G01 X53.7817 Y20.8301 
G01 X53.8458 Y20.8943 
G01 X53.9296 Y20.9290 
G01 X57.8304 Y20.9290 
G01 X57.9141 Y20.8943 
G01 X57.9783 Y20.8301 
G01 X58.0130 Y20.7463 
G01 X58.0130 Y19.8936 
G01 X57.9783 Y19.8098 
G01 X57.9141 Y19.7457 
G01 X57.8304 Y19.7110 
G01 X53.9296 Y19.7110 
G01 X53.8458 Y19.7457 
G01 X53.7817 Y19.8098 
G01 X53.7470 Y19.8936 
G01 X53.7470 Y20.1174 
G01 X46.4417 Y20.1174 
G01 X46.3672 Y20.1482 
G01 X46.3102 Y20.2052 
G01 X43.3181 Y23.1974 
G01 X43.1286 Y23.1974 
G01 X43.1286 Y23.1005 
G01 X43.1132 Y23.0634 
G01 X43.0848 Y23.0350 
G01 X43.0477 Y23.0196 
G01 X41.7375 Y23.0196 
G01 X41.7004 Y23.0350 
G01 X41.6720 Y23.0634 
G01 X41.6566 Y23.1005 
G01 X41.6566 Y23.6995 
G01 X41.6720 Y23.7366 
G01 X41.7004 Y23.7650 
G01 X41.7375 Y23.7804 
G00 Z0.5000 
G00 X41.7375 Y22.9804 
G01 Z-0.0800 F5.00  
G01 X43.0477 Y22.9804 F25.00 
G01 X43.0848 Y22.9650 
G01 X43.1132 Y22.9366 
G01 X43.1286 Y22.8995 
G01 X43.1286 Y22.3005 
G01 X43.1132 Y22.2634 
G01 X43.0848 Y22.2350 
G01 X43.0477 Y22.2196 
G01 X42.5952 Y22.2196 
G01 X42.5952 Y20.4293 
G01 X42.8829 Y20.1416 
G01 X45.2523 Y20.1416 
G01 X45.3268 Y20.1108 
G01 X47.4549 Y17.9826 
G01 X53.7470 Y17.9826 
G01 X53.7470 Y18.2064 
G01 X53.7817 Y18.2902 
G01 X53.8458 Y18.3543 
G01 X53.9296 Y18.3890 
G01 X57.8304 Y18.3890 
G01 X57.9141 Y18.3543 
G01 X57.9783 Y18.2902 
G01 X58.0130 Y18.2064 
G01 X58.0130 Y17.3536 
G01 X57.9783 Y17.2698 
G01 X57.9141 Y17.2057 
G01 X57.8304 Y17.1710 
G01 X53.9296 Y17.1710 
G01 X53.8458 Y17.2057 
G01 X53.7817 Y17.2698 
G01 X53.7470 Y17.3536 
G01 X53.7470 Y17.5774 
G01 X47.3307 Y17.5774 
G01 X47.2562 Y17.6082 
G01 X47.1992 Y17.6652 
G01 X45.1281 Y19.7364 
G01 X42.7587 Y19.7364 
G01 X42.6842 Y19.7672 
G01 X42.6272 Y19.8242 
G01 X42.2208 Y20.2306 
G01 X42.1900 Y20.3051 
G01 X42.1900 Y22.2196 
G01 X41.7375 Y22.2196 
G01 X41.7004 Y22.2350 
G01 X41.6720 Y22.2634 
G01 X41.6566 Y22.3005 
G01 X41.6566 Y22.8995 
G01 X41.6720 Y22.9366 
G01 X41.7004 Y22.9650 
G01 X41.7375 Y22.9804 
G00 Z0.5000 
G00 X41.2650 Y21.7996 
G01 Z-0.0800 F5.00  
G01 X41.2804 Y21.7625 F25.00 
G01 X41.2804 Y20.4523 
G01 X41.2650 Y20.4152 
G01 X41.2366 Y20.3868 
G01 X41.1995 Y20.3714 
G01 X41.1026 Y20.3714 
G01 X41.1026 Y20.0169 
G01 X41.8669 Y19.2526 
G01 X45.2523 Y19.2526 
G01 X45.3268 Y19.2218 
G01 X45.8348 Y18.7138 
G01 X45.8918 Y18.6568 
G01 X45.9226 Y18.5823 
G01 X45.9226 Y17.3730 
G01 X46.1463 Y17.3730 
G01 X46.2302 Y17.3383 
G01 X46.2943 Y17.2741 
G01 X46.3290 Y17.1903 
G01 X46.3290 Y13.2896 
G01 X46.2943 Y13.2058 
G01 X46.2302 Y13.1417 
G01 X46.1463 Y13.1070 
G01 X45.2936 Y13.1070 
G01 X45.2098 Y13.1417 
G01 X45.1457 Y13.2058 
G01 X45.1110 Y13.2896 
G01 X45.1110 Y17.1903 
G01 X45.1457 Y17.2741 
G01 X45.2098 Y17.3383 
G01 X45.2936 Y17.3730 
G01 X45.5174 Y17.3730 
G01 X45.5174 Y18.4581 
G01 X45.1281 Y18.8474 
G01 X41.7427 Y18.8474 
G01 X41.6682 Y18.8782 
G01 X40.7282 Y19.8182 
G01 X40.6974 Y19.8927 
G01 X40.6974 Y20.3714 
G01 X40.6005 Y20.3714 
G01 X40.5634 Y20.3868 
G01 X40.5350 Y20.4152 
G01 X40.5196 Y20.4523 
G01 X40.5196 Y21.7625 
G01 X40.5350 Y21.7996 
G01 X40.5634 Y21.8280 
G01 X40.6005 Y21.8434 
G01 X41.1995 Y21.8434 
G01 X41.2366 Y21.8280 
G01 X41.2650 Y21.7996 
G00 Z0.5000 
G00 X40.4650 Y21.7996 
G01 Z-0.0800 F5.00  
G01 X40.4804 Y21.7625 F25.00 
G01 X40.4804 Y20.4523 
G01 X40.4650 Y20.4152 
G01 X40.4366 Y20.3868 
G01 X40.3995 Y20.3714 
G01 X40.3346 Y20.3714 
G01 X40.3346 Y20.1499 
G01 X41.8669 Y18.6176 
G01 X42.7123 Y18.6176 
G01 X42.7868 Y18.5868 
G01 X43.2948 Y18.0788 
G01 X43.3518 Y18.0218 
G01 X43.3826 Y17.9473 
G01 X43.3826 Y17.3730 
G01 X43.6063 Y17.3730 
G01 X43.6902 Y17.3383 
G01 X43.7543 Y17.2741 
G01 X43.7890 Y17.1903 
G01 X43.7890 Y13.2896 
G01 X43.7543 Y13.2058 
G01 X43.6902 Y13.1417 
G01 X43.6063 Y13.1070 
G01 X42.7536 Y13.1070 
G01 X42.6698 Y13.1417 
G01 X42.6057 Y13.2058 
G01 X42.5710 Y13.2896 
G01 X42.5710 Y17.1903 
G01 X42.6057 Y17.2741 
G01 X42.6698 Y17.3383 
G01 X42.7536 Y17.3730 
G01 X42.9774 Y17.3730 
G01 X42.9774 Y17.8231 
G01 X42.5881 Y18.2124 
G01 X41.7427 Y18.2124 
G01 X41.6682 Y18.2432 
G01 X39.9602 Y19.9512 
G01 X39.9294 Y20.0257 
G01 X39.9294 Y20.3714 
G01 X39.8005 Y20.3714 
G01 X39.7634 Y20.3868 
G01 X39.7350 Y20.4152 
G01 X39.7196 Y20.4523 
G01 X39.7196 Y21.7625 
G01 X39.7350 Y21.7996 
G01 X39.7634 Y21.8280 
G01 X39.8005 Y21.8434 
G01 X40.3995 Y21.8434 
G01 X40.4366 Y21.8280 
G01 X40.4650 Y21.7996 
G00 Z0.5000 
G00 X39.6650 Y21.7996 
G01 Z-0.0800 F5.00  
G01 X39.6804 Y21.7625 F25.00 
G01 X39.6804 Y20.4523 
G01 X39.6650 Y20.4152 
G01 X39.6366 Y20.3868 
G01 X39.5995 Y20.3714 
G01 X39.5726 Y20.3714 
G01 X39.5726 Y20.2769 
G01 X40.8118 Y19.0378 
G01 X40.8426 Y18.9633 
G01 X40.8426 Y17.3730 
G01 X41.0663 Y17.3730 
G01 X41.1501 Y17.3383 
G01 X41.2143 Y17.2741 
G01 X41.2490 Y17.1903 
G01 X41.2490 Y13.2896 
G01 X41.2143 Y13.2058 
G01 X41.1501 Y13.1417 
G01 X41.0663 Y13.1070 
G01 X40.2136 Y13.1070 
G01 X40.1298 Y13.1417 
G01 X40.0657 Y13.2058 
G01 X40.0310 Y13.2896 
G01 X40.0310 Y17.1903 
G01 X40.0657 Y17.2741 
G01 X40.1298 Y17.3383 
G01 X40.2136 Y17.3730 
G01 X40.4374 Y17.3730 
G01 X40.4374 Y18.8391 
G01 X39.2552 Y20.0212 
G01 X39.1982 Y20.0782 
G01 X39.1674 Y20.1527 
G01 X39.1674 Y20.3714 
G01 X39.0005 Y20.3714 
G01 X38.9634 Y20.3868 
G01 X38.9350 Y20.4152 
G01 X38.9196 Y20.4523 
G01 X38.9196 Y21.7625 
G01 X38.9350 Y21.7996 
G01 X38.9634 Y21.8280 
G01 X39.0005 Y21.8434 
G01 X39.5995 Y21.8434 
G01 X39.6366 Y21.8280 
G01 X39.6650 Y21.7996 
G00 Z0.5000 
G00 X38.8650 Y21.7996 
G01 Z-0.0800 F5.00  
G01 X38.8804 Y21.7625 F25.00 
G01 X38.8804 Y20.4523 
G01 X38.8650 Y20.4152 
G01 X38.8366 Y20.3868 
G01 X38.8294 Y20.3838 
G01 X39.3493 Y19.8640 
G01 X39.3876 Y19.7975 
G01 X39.4075 Y19.7234 
G01 X39.4075 Y19.5877 
G01 X39.5042 Y19.5230 
G01 X39.5890 Y19.4382 
G01 X39.6557 Y19.3385 
G01 X39.7016 Y19.2276 
G01 X39.7250 Y19.1100 
G01 X39.7250 Y18.9900 
G01 X39.7016 Y18.8724 
G01 X39.6557 Y18.7615 
G01 X39.5890 Y18.6618 
G01 X39.5042 Y18.5770 
G01 X39.4045 Y18.5103 
G01 X39.2936 Y18.4644 
G01 X39.1760 Y18.4410 
G01 X39.0560 Y18.4410 
G01 X38.9384 Y18.4644 
G01 X38.8275 Y18.5103 
G01 X38.7278 Y18.5770 
G01 X38.6430 Y18.6618 
G01 X38.5763 Y18.7615 
G01 X38.5304 Y18.8724 
G01 X38.5070 Y18.9900 
G01 X38.5070 Y19.1100 
G01 X38.5304 Y19.2276 
G01 X38.5763 Y19.3385 
G01 X38.6430 Y19.4382 
G01 X38.7278 Y19.5230 
G01 X38.8105 Y19.5783 
G01 X38.3020 Y20.0867 
G01 X38.2477 Y20.1410 
G01 X38.2094 Y20.2075 
G01 X38.1895 Y20.2816 
G01 X38.1895 Y20.3760 
G01 X38.1634 Y20.3868 
G01 X38.1350 Y20.4152 
G01 X38.1196 Y20.4523 
G01 X38.1196 Y21.7625 
G01 X38.1350 Y21.7996 
G01 X38.1634 Y21.8280 
G01 X38.2005 Y21.8434 
G01 X38.7995 Y21.8434 
G01 X38.8366 Y21.8280 
G01 X38.8650 Y21.7996 
G00 Z0.5000 
G00 X38.0650 Y21.7996 
G01 Z-0.0800 F5.00  
G01 X38.0804 Y21.7625 F25.00 
G01 X38.0804 Y20.4523 
G01 X38.0650 Y20.4152 
G01 X38.0366 Y20.3868 
G01 X37.9995 Y20.3714 
G01 X37.9915 Y20.3714 
G01 X37.9915 Y20.0430 
G01 X38.2391 Y20.0430 
G01 X38.2762 Y20.0276 
G01 X38.3046 Y19.9992 
G01 X38.3200 Y19.9621 
G01 X38.3200 Y18.8219 
G01 X38.3046 Y18.7848 
G01 X38.2762 Y18.7564 
G01 X38.2391 Y18.7410 
G01 X37.1989 Y18.7410 
G01 X37.1618 Y18.7564 
G01 X37.1334 Y18.7848 
G01 X37.1180 Y18.8219 
G01 X37.1180 Y19.9621 
G01 X37.1334 Y19.9992 
G01 X37.1618 Y20.0276 
G01 X37.1989 Y20.0430 
G01 X37.4085 Y20.0430 
G01 X37.4085 Y20.3714 
G01 X37.4005 Y20.3714 
G01 X37.3634 Y20.3868 
G01 X37.3350 Y20.4152 
G01 X37.3196 Y20.4523 
G01 X37.3196 Y21.7625 
G01 X37.3350 Y21.7996 
G01 X37.3634 Y21.8280 
G01 X37.4005 Y21.8434 
G01 X37.9995 Y21.8434 
G01 X38.0366 Y21.8280 
G01 X38.0650 Y21.7996 
G00 Z0.5000 
G00 X38.2391 Y18.3430 
G01 Z-0.0800 F5.00  
G01 X38.2762 Y18.3276 F25.00 
G01 X38.3046 Y18.2992 
G01 X38.3200 Y18.2621 
G01 X38.3200 Y17.9445 
G01 X38.5783 Y17.9445 
G01 X38.6430 Y18.0412 
G01 X38.7278 Y18.1260 
G01 X38.8275 Y18.1927 
G01 X38.9384 Y18.2386 
G01 X39.0560 Y18.2620 
G01 X39.1760 Y18.2620 
G01 X39.2936 Y18.2386 
G01 X39.4045 Y18.1927 
G01 X39.5042 Y18.1260 
G01 X39.5890 Y18.0412 
G01 X39.6557 Y17.9415 
G01 X39.7016 Y17.8306 
G01 X39.7250 Y17.7130 
G01 X39.7250 Y17.5930 
G01 X39.7016 Y17.4754 
G01 X39.6557 Y17.3645 
G01 X39.5890 Y17.2648 
G01 X39.5042 Y17.1800 
G01 X39.4045 Y17.1133 
G01 X39.2936 Y17.0674 
G01 X39.1760 Y17.0440 
G01 X39.0560 Y17.0440 
G01 X38.9384 Y17.0674 
G01 X38.8275 Y17.1133 
G01 X38.7278 Y17.1800 
G01 X38.6430 Y17.2648 
G01 X38.5783 Y17.3615 
G01 X38.3200 Y17.3615 
G01 X38.3200 Y17.1219 
G01 X38.3046 Y17.0848 
G01 X38.2762 Y17.0564 
G01 X38.2391 Y17.0410 
G01 X37.1989 Y17.0410 
G01 X37.1618 Y17.0564 
G01 X37.1334 Y17.0848 
G01 X37.1180 Y17.1219 
G01 X37.1180 Y18.2621 
G01 X37.1334 Y18.2992 
G01 X37.1618 Y18.3276 
G01 X37.1989 Y18.3430 
G01 X38.2391 Y18.3430 
G00 Z0.5000 
G00 X36.3996 Y18.2992 
G01 Z-0.0800 F5.00  
G01 X36.4150 Y18.2621 F25.00 
G01 X36.4150 Y17.1219 
G01 X36.4110 Y17.1123 
G01 X36.4110 Y16.9840 
G01 X36.4559 Y16.9840 
G01 X36.5482 Y16.9458 
G01 X36.6188 Y16.8752 
G01 X36.6570 Y16.7829 
G01 X36.6570 Y15.9831 
G01 X36.6188 Y15.8908 
G01 X36.5482 Y15.8202 
G01 X36.4865 Y15.7947 
G01 X36.4865 Y15.4288 
G01 X36.5410 Y15.3742 
G01 X36.6077 Y15.2745 
G01 X36.6536 Y15.1636 
G01 X36.6770 Y15.0460 
G01 X36.6770 Y14.9260 
G01 X36.6536 Y14.8084 
G01 X36.6077 Y14.6975 
G01 X36.5410 Y14.5978 
G01 X36.4562 Y14.5130 
G01 X36.3565 Y14.4463 
G01 X36.2456 Y14.4004 
G01 X36.1280 Y14.3770 
G01 X36.0080 Y14.3770 
G01 X35.8904 Y14.4004 
G01 X35.7795 Y14.4463 
G01 X35.6798 Y14.5130 
G01 X35.5950 Y14.5978 
G01 X35.5283 Y14.6975 
G01 X35.4824 Y14.8084 
G01 X35.4590 Y14.9260 
G01 X35.4590 Y15.0460 
G01 X35.4824 Y15.1636 
G01 X35.5283 Y15.2745 
G01 X35.5950 Y15.3742 
G01 X35.6495 Y15.4288 
G01 X35.6495 Y15.7847 
G01 X35.5638 Y15.8202 
G01 X35.4932 Y15.8908 
G01 X35.4550 Y15.9831 
G01 X35.4550 Y16.7829 
G01 X35.4932 Y16.8752 
G01 X35.5638 Y16.9458 
G01 X35.6561 Y16.9840 
G01 X35.7010 Y16.9840 
G01 X35.7010 Y17.0410 
G01 X35.2939 Y17.0410 
G01 X35.2568 Y17.0564 
G01 X35.2284 Y17.0848 
G01 X35.2130 Y17.1219 
G01 X35.2130 Y18.2621 
G01 X35.2284 Y18.2992 
G01 X35.2568 Y18.3276 
G01 X35.2939 Y18.3430 
G01 X36.3341 Y18.3430 
G01 X36.3712 Y18.3276 
G01 X36.3996 Y18.2992 
G00 Z0.5000 
G00 X35.1296 Y18.2992 
G01 Z-0.0800 F5.00  
G01 X35.1450 Y18.2621 F25.00 
G01 X35.1450 Y17.1219 
G01 X35.1296 Y17.0848 
G01 X35.1012 Y17.0564 
G01 X35.0641 Y17.0410 
G01 X34.7466 Y17.0410 
G01 X34.7466 Y16.9655 
G01 X34.7942 Y16.9458 
G01 X34.8648 Y16.8752 
G01 X34.9030 Y16.7829 
G01 X34.9030 Y15.9831 
G01 X34.8648 Y15.8908 
G01 X34.7942 Y15.8202 
G01 X34.7019 Y15.7820 
G01 X33.9021 Y15.7820 
G01 X33.8098 Y15.8202 
G01 X33.7392 Y15.8908 
G01 X33.7010 Y15.9831 
G01 X33.7010 Y16.7829 
G01 X33.7392 Y16.8752 
G01 X33.8098 Y16.9458 
G01 X33.9021 Y16.9840 
G01 X34.3414 Y16.9840 
G01 X34.3414 Y17.0410 
G01 X34.0239 Y17.0410 
G01 X33.9868 Y17.0564 
G01 X33.9584 Y17.0848 
G01 X33.9430 Y17.1219 
G01 X33.9430 Y18.2621 
G01 X33.9584 Y18.2992 
G01 X33.9868 Y18.3276 
G01 X34.0239 Y18.3430 
G01 X35.0641 Y18.3430 
G01 X35.1012 Y18.3276 
G01 X35.1296 Y18.2992 
G00 Z0.5000 
G00 X39.8619 Y35.3485 
G01 Z-0.0800 F5.00  
G01 X39.9310 Y35.3086 F25.00 
G01 X40.0081 Y35.2880 
G01 X40.0470 Y35.2880 
G01 X40.0470 Y35.3400 
G01 X39.9981 Y35.3400 
G01 X39.9058 Y35.3782 
G01 X39.8352 Y35.4488 
G01 X39.7970 Y35.5411 
G01 X39.7970 Y35.5900 
G01 X39.7450 Y35.5900 
G01 X39.7450 Y35.5511 
G01 X39.7656 Y35.4740 
G01 X39.8055 Y35.4049 
G01 X39.8619 Y35.3485 
G00 Z0.5000 
G00 X39.7970 Y36.2920 
G01 Z-0.0800 F5.00  
G01 X39.7970 Y36.3409 F25.00 
G01 X39.8352 Y36.4332 
G01 X39.9058 Y36.5038 
G01 X39.9981 Y36.5420 
G01 X40.2176 Y36.5420 
G01 X40.2296 Y36.5470 
G01 X40.2890 Y36.5470 
G01 X40.2890 Y36.5990 
G01 X40.1199 Y36.5990 
G01 X40.0828 Y36.6144 
G01 X40.0544 Y36.6428 
G01 X40.0390 Y36.6799 
G01 X40.0390 Y36.8990 
G01 X39.9710 Y36.8990 
G01 X39.9710 Y36.6799 
G01 X39.9556 Y36.6428 
G01 X39.9272 Y36.6144 
G01 X39.8901 Y36.5990 
G01 X39.7210 Y36.5990 
G01 X39.7210 Y36.4223 
G01 X39.7450 Y36.3644 
G01 X39.7450 Y36.2920 
G01 X39.7970 Y36.2920 
G00 Z0.5000 
G00 X41.5510 Y36.3409 
G01 Z-0.0800 F5.00  
G01 X41.5892 Y36.4332 F25.00 
G01 X41.6598 Y36.5038 
G01 X41.7074 Y36.5235 
G01 X41.7074 Y36.5990 
G01 X41.3899 Y36.5990 
G01 X41.3528 Y36.6144 
G01 X41.3244 Y36.6428 
G01 X41.3090 Y36.6799 
G01 X41.3090 Y37.8201 
G01 X41.3244 Y37.8572 
G01 X41.3528 Y37.8856 
G01 X41.3899 Y37.9010 
G01 X42.4301 Y37.9010 
G01 X42.4672 Y37.8856 
G01 X42.4956 Y37.8572 
G01 X42.5110 Y37.8201 
G01 X42.5110 Y36.6799 
G01 X42.4956 Y36.6428 
G01 X42.4672 Y36.6144 
G01 X42.4301 Y36.5990 
G01 X42.1126 Y36.5990 
G01 X42.1126 Y36.5420 
G01 X42.5519 Y36.5420 
G01 X42.6442 Y36.5038 
G01 X42.7148 Y36.4332 
G01 X42.7530 Y36.3409 
G01 X42.7530 Y35.5411 
G01 X42.7148 Y35.4488 
G01 X42.6442 Y35.3782 
G01 X42.5519 Y35.3400 
G01 X41.7521 Y35.3400 
G01 X41.6598 Y35.3782 
G01 X41.5892 Y35.4488 
G01 X41.5510 Y35.5411 
G01 X41.5510 Y36.3409 
G00 Z0.5000 
G00 X42.7070 Y44.8238 
G01 Z-0.0800 F5.00  
G01 X42.6403 Y44.9235 F25.00 
G01 X42.5944 Y45.0344 
G01 X42.5710 Y45.1520 
G01 X42.5710 Y45.2720 
G01 X42.5944 Y45.3896 
G01 X42.6403 Y45.5005 
G01 X42.7070 Y45.6002 
G01 X42.7615 Y45.6547 
G01 X42.7615 Y46.1270 
G01 X42.7536 Y46.1270 
G01 X42.6698 Y46.1617 
G01 X42.6057 Y46.2258 
G01 X42.5710 Y46.3096 
G01 X42.5710 Y50.2103 
G01 X42.6057 Y50.2942 
G01 X42.6698 Y50.3583 
G01 X42.7536 Y50.3930 
G01 X43.6063 Y50.3930 
G01 X43.6902 Y50.3583 
G01 X43.7543 Y50.2942 
G01 X43.7890 Y50.2103 
G01 X43.7890 Y46.3096 
G01 X43.7543 Y46.2258 
G01 X43.6902 Y46.1617 
G01 X43.6063 Y46.1270 
G01 X43.5985 Y46.1270 
G01 X43.5985 Y45.6547 
G01 X43.6530 Y45.6002 
G01 X43.7197 Y45.5005 
G01 X43.7656 Y45.3896 
G01 X43.7890 Y45.2720 
G01 X43.7890 Y45.1520 
G01 X43.7656 Y45.0344 
G01 X43.7197 Y44.9235 
G01 X43.6530 Y44.8238 
G01 X43.5682 Y44.7390 
G01 X43.4685 Y44.6723 
G01 X43.3576 Y44.6264 
G01 X43.2400 Y44.6030 
G01 X43.1200 Y44.6030 
G01 X43.0024 Y44.6264 
G01 X42.8915 Y44.6723 
G01 X42.7918 Y44.7390 
G01 X42.7070 Y44.8238 
G00 Z0.5000 
G00 X45.2470 Y44.8238 
G01 Z-0.0800 F5.00  
G01 X45.1803 Y44.9235 F25.00 
G01 X45.1344 Y45.0344 
G01 X45.1110 Y45.1520 
G01 X45.1110 Y45.2720 
G01 X45.1344 Y45.3896 
G01 X45.1803 Y45.5005 
G01 X45.2470 Y45.6002 
G01 X45.3015 Y45.6548 
G01 X45.3015 Y46.1270 
